<?xml version="1.0" encoding="UTF-8"?>
<map version="1.10" tiledversion="1.12.2" orientation="orthogonal" renderorder="right-down" width="28" height="26" tilewidth="32" tileheight="32" infinite="0" nextlayerid="5" nextobjectid="14">
 <tileset firstgid="1" name="pipoya-basechip" tilewidth="32" tileheight="32" tilecount="512" columns="8">
  <image source="../../../apps/client/public/tilesets/pipoya-basechip.png" width="256" height="2048"/>
 </tileset>
 <layer id="1" name="ground" width="28" height="26">
  <data encoding="csv">
4,4,4,4,4,4,4,4,4,4,4,4,4,4,4,4,4,4,4,4,4,4,4,4,4,4,4,4,
4,4,4,4,4,4,4,4,4,4,4,4,4,4,4,4,6,6,6,6,4,4,4,4,4,4,4,4,
4,4,4,4,4,4,4,4,4,4,4,4,4,4,4,4,6,4,4,6,4,4,4,4,4,4,4,4,
4,4,4,4,4,4,4,4,4,4,4,4,4,4,4,4,6,4,4,6,4,4,4,4,4,4,4,4,
4,4,4,6,6,6,6,4,4,4,4,4,4,4,4,4,6,4,4,6,4,4,4,4,4,4,4,4,
4,4,4,6,4,4,6,4,5,5,5,5,5,5,5,5,6,6,6,6,4,4,4,4,4,4,4,4,
4,4,4,6,4,4,6,4,5,4,4,4,4,4,4,5,4,4,4,4,4,4,4,4,4,4,4,4,
4,4,4,6,6,6,6,4,5,4,4,4,4,4,4,5,5,5,5,5,5,5,5,4,4,4,4,4,
4,4,4,4,4,4,4,4,5,4,4,4,4,4,4,4,4,4,4,4,4,4,5,4,4,4,4,4,
4,4,4,4,4,5,5,5,5,4,4,4,4,4,4,6,6,6,6,6,6,4,5,4,4,4,4,4,
4,4,4,4,4,5,4,4,4,4,4,4,4,4,4,6,4,4,4,4,6,4,5,4,4,4,4,4,
4,4,4,4,4,5,6,6,6,6,6,4,4,4,4,6,4,4,4,4,6,4,5,4,4,4,4,4,
4,4,4,4,4,5,6,4,4,4,6,4,4,4,4,6,6,6,6,6,6,5,5,4,4,4,4,4,
5,5,5,5,5,5,6,4,4,4,6,4,4,6,6,6,6,6,4,4,4,5,4,4,4,4,4,4,
4,4,4,4,4,5,6,6,6,6,6,4,4,6,4,4,4,6,4,4,4,5,6,6,6,6,6,4,
4,4,4,4,4,5,4,4,4,4,4,4,4,6,4,4,4,6,4,4,4,5,6,4,4,4,6,4,
4,4,4,4,4,5,5,5,5,4,4,4,4,6,6,6,6,6,4,4,4,5,6,4,4,4,6,4,
4,4,4,4,4,4,4,4,5,4,4,4,4,4,4,4,4,4,4,4,4,5,6,6,6,6,6,4,
4,4,4,4,4,4,4,4,5,4,4,4,4,4,4,4,4,4,4,4,4,5,4,4,4,4,4,4,
4,4,4,6,6,6,6,4,5,4,4,4,4,4,4,4,5,5,5,5,5,5,4,4,4,4,4,4,
4,4,4,6,4,4,6,4,5,5,5,5,5,5,5,5,5,4,4,4,4,4,4,4,4,4,4,4,
4,4,4,6,4,4,6,4,4,4,4,4,4,4,4,4,5,4,4,4,4,4,4,4,4,4,4,4,
4,4,4,6,6,6,6,4,4,4,4,4,4,4,4,4,4,4,4,4,4,4,4,4,4,4,4,4,
4,4,4,4,4,4,4,4,4,4,4,4,4,4,4,4,4,4,4,4,4,4,4,4,4,4,4,4,
4,4,4,4,4,4,4,4,4,4,4,4,4,4,4,4,4,4,4,4,4,4,4,4,4,4,4,4,
4,4,4,4,4,4,4,4,4,4,4,4,4,4,4,4,4,4,4,4,4,4,4,4,4,4,4,4
</data>
 </layer>
 <layer id="2" name="decor" width="28" height="26">
  <data encoding="csv">
0,0,0,0,0,0,0,0,0,0,0,0,0,0,0,0,0,0,0,0,0,0,0,0,0,0,0,0,
0,51,0,0,0,0,0,0,0,0,0,0,0,0,0,0,0,112,0,0,0,0,0,0,0,0,0,0,
0,112,0,0,0,0,0,0,0,0,0,0,0,0,0,0,0,0,0,0,0,0,0,0,0,0,0,0,
0,0,0,0,0,0,0,0,0,0,0,51,0,0,112,0,0,0,0,0,0,0,0,0,0,0,0,0,
0,0,0,0,0,0,0,0,0,0,0,0,0,0,0,0,0,0,0,0,0,0,0,0,0,0,0,0,
0,0,0,0,0,0,0,0,0,0,0,0,0,0,0,0,0,0,0,0,0,0,0,0,0,0,0,0,
0,0,0,0,0,0,0,0,0,0,0,0,0,0,0,0,0,0,0,0,0,51,0,0,112,0,0,0,
0,0,112,0,0,0,0,0,0,0,0,0,0,0,0,0,0,0,0,0,0,0,0,0,0,0,0,0,
0,0,0,0,0,0,0,0,0,0,0,0,0,0,0,0,0,0,0,0,0,0,0,0,0,0,0,0,
0,0,0,0,0,0,0,0,0,0,0,0,0,0,0,0,0,0,0,0,0,0,0,0,0,0,0,0,
0,0,0,0,0,0,0,0,0,0,0,0,51,0,0,0,0,0,0,0,0,0,0,0,0,0,0,0,
0,0,0,0,0,0,0,0,0,0,0,0,0,0,0,0,0,0,0,0,0,0,0,0,0,0,0,0,
0,0,112,0,0,0,0,0,0,0,0,0,0,0,0,0,0,0,0,0,0,0,0,0,0,0,0,0,
0,0,0,0,0,0,0,0,0,0,0,0,0,0,0,0,112,0,0,0,0,0,0,112,0,0,0,0,
0,0,0,0,0,0,0,0,0,112,0,0,0,0,0,0,0,0,0,0,0,0,0,0,0,0,0,0,
0,0,0,0,0,0,0,0,0,51,0,0,0,0,0,0,0,0,0,0,0,0,0,0,0,0,0,0,
0,112,0,0,0,0,0,0,0,0,0,0,0,0,0,0,0,112,0,0,0,0,0,0,0,0,0,0,
0,0,0,0,0,0,112,0,0,0,0,0,0,0,0,0,0,0,0,0,0,0,0,0,0,0,0,0,
0,0,0,0,112,0,0,0,0,0,0,0,0,0,0,0,0,0,51,0,0,0,51,0,0,0,0,0,
0,0,0,0,51,0,0,0,0,0,0,0,0,0,0,0,0,0,0,0,0,0,0,0,0,112,0,0,
0,0,0,0,0,0,0,0,0,0,0,0,0,0,0,0,0,0,0,0,0,0,0,0,0,0,0,0,
0,0,0,0,0,0,0,0,0,0,0,0,0,0,0,0,0,0,0,0,0,0,0,0,0,0,0,0,
0,0,51,0,0,0,0,0,0,0,0,0,0,0,0,0,0,0,0,0,0,0,0,0,0,0,0,0,
0,0,0,0,0,0,0,0,0,0,0,0,0,0,0,0,0,0,0,51,0,0,0,0,0,51,0,0,
0,0,0,0,0,0,0,0,0,0,0,0,0,0,0,0,0,51,0,0,0,0,112,0,0,112,0,0,
0,0,0,0,0,0,0,0,0,0,0,0,0,0,0,0,0,0,0,0,0,0,0,0,0,0,0,0
</data>
 </layer>
 <layer id="3" name="walls" width="28" height="26">
  <data encoding="csv">
130,130,130,130,130,130,130,130,130,130,130,130,130,130,130,130,130,130,130,130,130,130,130,130,130,130,130,130,
130,0,0,0,0,0,0,0,0,0,0,0,0,0,0,0,0,0,0,0,0,0,0,0,0,0,0,130,
130,0,0,0,0,0,130,130,130,130,130,0,0,66,0,0,0,114,114,0,0,0,0,0,0,0,0,130,
130,0,67,0,0,0,0,0,0,0,0,0,0,0,0,0,0,130,130,0,0,0,0,0,66,0,0,130,
130,0,0,0,0,0,0,0,0,0,0,0,0,0,0,0,0,146,146,0,0,0,0,0,0,0,0,130,
130,0,0,0,114,114,0,0,0,0,0,0,0,0,0,0,0,0,0,0,0,0,0,0,0,0,0,130,
130,0,0,0,146,146,0,0,0,0,0,0,0,0,0,0,0,0,0,0,0,0,0,0,0,0,0,130,
130,0,0,0,0,0,0,0,0,0,0,0,0,0,0,0,0,0,0,0,0,0,0,0,0,0,0,130,
130,0,0,0,0,0,0,0,0,0,0,0,0,0,0,0,0,0,0,0,0,0,0,0,0,0,0,130,
130,0,0,0,0,0,0,0,0,0,0,0,0,0,0,0,0,0,0,0,0,0,0,0,0,0,130,130,
130,0,0,0,0,0,0,0,0,0,0,0,0,0,0,0,114,114,114,114,0,0,0,0,66,0,130,130,
130,0,0,0,0,0,0,0,0,0,0,66,0,0,0,0,146,146,146,146,0,0,0,0,0,0,130,130,
130,0,0,0,0,0,0,114,114,114,0,0,0,0,0,0,0,0,0,0,0,0,0,0,67,0,130,130,
0,0,0,0,0,0,0,146,146,146,0,0,0,0,0,0,0,0,0,0,0,0,0,0,0,0,0,130,
130,0,0,0,0,0,0,0,0,0,0,0,0,0,114,114,114,0,0,0,0,0,0,0,0,0,0,130,
130,0,0,0,0,0,0,0,0,0,66,0,0,0,146,146,146,0,0,0,0,0,0,114,114,114,0,130,
130,0,0,0,0,0,0,0,0,0,0,0,0,0,0,0,0,0,0,0,0,0,0,146,146,146,0,130,
130,0,67,0,0,0,0,0,0,0,0,0,0,0,0,0,0,0,0,67,0,0,0,0,0,0,0,130,
130,0,0,0,0,0,0,0,0,0,0,0,0,0,0,0,0,0,0,0,0,0,0,0,0,0,130,130,
130,0,0,0,0,0,0,0,0,0,0,0,0,0,0,0,0,0,0,0,0,0,0,0,0,0,130,130,
130,0,0,0,114,114,0,0,0,0,0,0,0,0,0,0,0,0,0,0,0,0,0,0,0,0,0,130,
130,0,0,0,146,146,0,0,0,0,0,0,0,0,0,0,0,0,0,0,0,0,0,0,0,130,130,130,
130,0,0,0,0,0,0,0,0,0,0,0,0,66,0,0,0,0,0,0,0,0,0,0,0,130,130,130,
130,0,0,0,130,130,0,0,0,0,0,0,0,0,0,0,0,0,0,0,0,0,0,0,0,0,0,130,
130,0,0,0,0,0,0,0,0,0,0,0,0,0,0,0,0,0,0,0,0,0,0,0,0,0,0,130,
130,130,130,130,130,130,130,130,130,130,130,130,130,130,130,130,130,130,130,130,130,130,130,130,130,130,130,130
</data>
 </layer>
 <objectgroup id="4" name="spawn">
  <object id="1" name="player" x="48" y="432">
   <point/>
  </object>
 </objectgroup>
 <objectgroup id="5" name="nodes">
  <object id="2" x="720" y="208">
   <properties>
    <property name="nodeId" value="iron_vein"/>
    <property name="instanceId" value="iron_vein-3"/>
   </properties>
   <point/>
  </object>
  <object id="3" x="688" y="688">
   <properties>
    <property name="nodeId" value="iron_vein"/>
    <property name="instanceId" value="iron_vein-4"/>
   </properties>
   <point/>
  </object>
  <object id="4" x="816" y="400">
   <properties>
    <property name="nodeId" value="iron_vein"/>
    <property name="instanceId" value="iron_vein-5"/>
   </properties>
   <point/>
  </object>
  <object id="5" x="528" y="208">
   <properties>
    <property name="nodeId" value="iron_vein"/>
    <property name="instanceId" value="iron_vein-6"/>
   </properties>
   <point/>
  </object>
  <object id="6" x="496" y="592">
   <properties>
    <property name="nodeId" value="copper_vein"/>
    <property name="instanceId" value="copper_vein-3"/>
   </properties>
   <point/>
  </object>
  <object id="7" x="368" y="688">
   <properties>
    <property name="nodeId" value="copper_vein"/>
    <property name="instanceId" value="copper_vein-4"/>
   </properties>
   <point/>
  </object>
  <object id="8" x="240" y="112">
   <properties>
    <property name="nodeId" value="copper_vein"/>
    <property name="instanceId" value="copper_vein-5"/>
   </properties>
   <point/>
  </object>
  <object id="9" x="368" y="240">
   <properties>
    <property name="nodeId" value="copper_vein"/>
    <property name="instanceId" value="copper_vein-6"/>
   </properties>
   <point/>
  </object>
  <object id="10" x="528" y="400">
   <properties>
    <property name="nodeId" value="copper_vein"/>
    <property name="instanceId" value="copper_vein-7"/>
   </properties>
   <point/>
  </object>
  <object id="11" x="240" y="624">
   <properties>
    <property name="nodeId" value="copper_vein"/>
    <property name="instanceId" value="copper_vein-8"/>
   </properties>
   <point/>
  </object>
  <object id="12" x="368" y="400">
   <properties>
    <property name="nodeId" value="copper_vein"/>
    <property name="instanceId" value="copper_vein-9"/>
   </properties>
   <point/>
  </object>
  <object id="13" x="208" y="496">
   <properties>
    <property name="nodeId" value="copper_vein"/>
    <property name="instanceId" value="copper_vein-10"/>
   </properties>
   <point/>
  </object>
 </objectgroup>
</map>
