<?xml version="1.0" encoding="UTF-8"?>
<map version="1.10" tiledversion="1.12.2" orientation="orthogonal" renderorder="right-down" width="30" height="31" tilewidth="32" tileheight="32" infinite="0" nextlayerid="6" nextobjectid="2">
 <tileset firstgid="1" name="pipoya-basechip" tilewidth="32" tileheight="32" tilecount="512" columns="8">
  <image source="../../../apps/client/public/tilesets/pipoya-basechip.png" width="256" height="2048"/>
 </tileset>
 <tileset firstgid="513" name="pipoya-basechip-2" tilewidth="32" tileheight="32" tilecount="512" columns="8">
  <image source="../../../apps/client/public/tilesets/pipoya-basechip-2.png" width="256" height="2048"/>
 </tileset>
 <tileset firstgid="1025" name="pipoya-basechip-3" tilewidth="32" tileheight="32" tilecount="40" columns="8">
  <image source="../../../apps/client/public/tilesets/pipoya-basechip-3.png" width="256" height="160"/>
 </tileset>
 <tileset firstgid="1065" name="pipoya-addwork" tilewidth="32" tileheight="32" tilecount="768" columns="12">
  <image source="../../../apps/client/public/tilesets/pipoya-addwork.png" width="384" height="2048"/>
 </tileset>
 <tileset firstgid="1833" name="pipoya-water" tilewidth="32" tileheight="32" tilecount="96" columns="8">
  <image source="../../../apps/client/public/tilesets/pipoya-water.png" width="256" height="384"/>
 </tileset>
 <layer id="1" name="ground" width="30" height="31">
  <data encoding="csv">
8,8,8,8,8,8,8,8,8,8,8,8,8,8,292,292,292,8,8,8,8,8,8,8,8,8,8,8,8,8,
8,8,8,8,8,8,8,8,8,8,8,8,8,8,292,292,292,8,8,8,8,8,8,8,8,8,8,8,8,8,
8,8,8,8,8,8,8,8,8,8,8,8,8,8,292,292,292,8,8,8,8,8,8,8,8,8,8,8,8,8,
8,8,8,8,8,8,8,8,8,8,8,8,8,8,292,292,292,8,8,8,8,8,8,8,8,8,8,8,8,8,
8,8,8,8,8,8,8,8,8,8,8,8,8,8,292,292,292,8,8,8,8,8,8,8,8,8,8,8,8,8,
8,8,8,8,8,8,8,8,8,8,8,8,8,8,292,292,292,8,8,8,8,8,8,8,8,8,8,8,8,8,
8,8,8,8,8,8,8,8,8,8,8,8,8,8,292,292,292,8,8,8,8,8,8,8,8,8,8,8,8,8,
8,8,8,8,8,8,8,8,8,8,8,8,8,8,292,292,292,8,8,8,8,8,8,8,8,8,8,8,8,8,
8,8,8,8,8,8,8,8,8,8,8,8,8,8,292,292,292,8,8,8,8,8,8,8,8,8,8,8,8,8,
8,8,8,8,8,8,8,8,8,8,8,8,8,8,292,292,292,8,8,8,8,8,8,8,8,8,8,8,8,8,
8,8,8,8,8,8,8,8,8,8,8,8,8,8,292,292,292,8,8,8,8,8,8,8,8,8,8,8,8,8,
8,8,8,8,8,8,8,8,8,8,8,8,8,8,292,292,292,8,8,8,8,8,8,8,8,8,8,8,8,8,
8,8,8,8,8,8,8,8,8,8,8,8,8,8,292,292,292,8,8,8,8,8,8,8,8,8,8,8,8,8,
8,8,8,8,8,8,8,8,8,8,8,8,8,8,292,292,292,8,8,8,8,8,8,8,8,8,8,8,8,8,
292,292,292,292,292,292,292,292,292,292,292,290,290,290,290,290,290,290,292,292,292,292,292,292,292,292,292,292,292,292,
292,292,292,292,292,292,292,292,292,292,292,290,290,290,290,290,290,290,292,292,292,292,292,292,292,292,292,292,292,292,
292,292,292,292,292,292,292,292,292,292,292,290,290,290,290,290,290,290,292,292,292,292,292,292,292,292,292,292,292,292,
8,8,8,8,8,8,8,8,8,8,8,290,290,290,290,290,290,290,8,8,8,8,8,8,8,8,8,8,8,8,
8,8,8,8,8,8,8,8,8,8,8,290,290,290,290,290,290,290,8,8,8,8,8,8,8,8,8,8,8,8,
8,8,8,8,8,8,8,8,8,8,8,290,290,290,290,290,290,290,8,8,8,8,8,8,8,8,8,8,8,8,
8,8,8,8,8,8,8,8,8,8,8,290,290,290,290,290,290,290,8,8,8,8,8,8,8,8,8,8,8,8,
8,8,8,8,8,8,8,8,8,8,8,290,290,290,290,290,290,290,8,8,8,8,8,8,8,8,8,8,8,8,
8,8,8,8,8,8,8,8,8,8,8,290,290,290,290,290,290,290,8,8,8,8,8,8,8,8,8,8,8,8,
8,8,8,8,8,8,8,8,8,8,8,8,8,8,292,292,292,8,8,8,8,8,8,8,8,8,8,8,8,8,
8,8,8,8,8,8,8,8,8,8,8,8,8,8,292,292,292,8,8,8,8,8,8,8,8,8,8,8,8,8,
8,8,8,8,8,8,8,8,8,8,8,8,8,8,292,292,292,8,8,8,8,8,8,8,8,8,8,8,8,8,
8,8,8,8,8,8,8,8,8,8,8,8,8,8,292,292,292,8,8,8,8,8,8,8,8,8,8,8,8,8,
8,8,8,8,8,8,8,8,8,8,8,8,8,8,292,292,292,8,8,8,8,8,8,8,8,8,8,8,8,8,
8,8,8,8,8,8,8,8,8,8,8,8,8,8,292,292,292,8,8,8,8,8,8,8,8,8,8,8,8,8,
8,8,8,8,8,8,8,8,8,8,8,8,8,8,292,292,292,8,8,8,8,8,8,8,8,8,8,8,8,8,
8,8,8,8,8,8,8,8,8,8,8,8,8,8,292,292,292,8,8,8,8,8,8,8,8,8,8,8,8,8
</data>
 </layer>
 <layer id="4" name="decor" width="30" height="31">
  <data encoding="csv">
0,0,0,0,0,0,0,0,0,0,0,0,0,0,0,0,0,0,0,0,0,0,0,0,0,0,0,0,0,0,
0,0,50,0,0,0,0,0,0,0,65,0,0,0,0,0,0,0,0,44,0,0,65,0,0,0,0,0,52,0,
0,65,0,0,52,0,0,0,44,0,0,52,0,0,0,0,0,0,0,0,0,0,0,0,0,0,0,0,0,0,
0,0,0,0,0,0,0,0,0,0,0,0,0,0,0,0,0,0,0,0,0,0,0,0,0,0,0,0,0,0,
0,0,0,0,0,0,0,0,0,0,0,0,0,0,0,0,0,0,0,0,0,0,0,0,0,0,0,0,0,0,
0,0,0,0,0,0,0,0,0,0,0,0,0,0,0,0,0,0,0,0,0,0,0,0,0,0,0,0,0,0,
0,0,0,0,0,0,0,0,0,0,0,0,0,0,0,0,0,0,0,0,0,0,0,0,0,0,0,0,0,0,
0,50,0,0,0,0,0,0,50,0,0,51,0,51,0,0,0,0,0,0,0,0,0,0,52,0,52,0,0,0,
0,0,0,0,0,0,65,0,0,0,0,0,0,0,0,0,0,0,0,0,0,0,0,0,0,0,52,0,65,0,
0,51,0,0,0,0,0,0,0,65,0,0,0,50,0,0,0,0,0,0,0,0,0,0,0,0,0,0,51,0,
0,0,0,0,0,0,0,0,0,0,0,0,0,0,0,0,0,0,0,0,0,0,0,0,0,0,0,0,0,0,
0,0,0,0,0,0,0,0,0,0,0,0,0,44,0,0,0,52,0,0,0,0,0,0,0,0,0,0,0,0,
0,0,0,0,0,0,0,0,0,0,0,0,0,0,0,0,0,0,0,0,0,0,0,0,0,0,0,0,0,0,
0,0,0,0,0,0,0,0,0,0,0,0,0,0,0,0,0,0,0,0,0,0,0,0,0,0,0,0,0,0,
0,0,0,0,0,0,0,0,0,0,0,0,0,0,0,0,0,0,0,0,0,0,0,0,0,0,0,0,0,0,
0,0,0,0,0,0,0,0,0,0,0,0,0,0,0,0,0,0,0,0,0,0,0,0,0,0,0,0,0,0,
0,0,0,0,0,0,0,0,0,0,0,0,0,0,0,0,0,0,0,0,0,0,0,0,0,0,0,0,0,0,
0,0,0,0,0,0,0,0,0,0,0,0,0,0,0,0,0,0,0,0,0,0,51,0,0,0,0,65,0,0,
0,51,0,0,0,0,0,0,65,0,0,0,0,0,0,0,0,0,0,0,0,0,0,0,0,0,0,0,0,0,
0,0,0,0,0,0,0,0,65,0,50,0,0,0,0,0,0,0,0,0,0,0,0,0,51,0,0,0,0,0,
0,0,0,0,0,0,0,0,0,0,0,0,0,0,0,0,0,0,0,0,0,0,0,0,52,0,0,0,0,0,
0,0,0,0,0,0,0,0,52,51,0,0,0,0,0,0,0,0,0,0,0,0,0,0,0,0,0,0,0,0,
0,0,0,0,0,0,0,0,0,0,0,0,0,0,0,0,0,0,0,0,0,0,0,0,0,0,0,0,0,0,
0,0,0,0,0,0,0,0,0,0,0,0,0,0,0,0,0,0,0,0,0,0,0,0,0,0,0,0,0,0,
0,0,0,0,0,0,0,0,0,0,0,0,0,52,0,0,0,0,50,50,0,0,0,52,65,0,0,0,0,0,
0,0,0,0,0,0,0,0,0,0,0,0,0,0,0,0,0,0,44,0,0,0,0,0,0,0,0,0,0,0,
0,0,0,0,0,0,0,0,0,0,0,0,0,0,0,0,0,0,0,0,0,0,0,0,0,0,0,0,0,0,
0,0,0,0,0,0,0,0,65,0,0,0,0,0,0,0,0,0,0,0,0,0,0,0,0,0,0,0,0,0,
0,0,0,0,0,0,0,0,0,0,0,0,0,0,0,0,0,0,0,0,0,0,0,0,0,0,0,0,0,0,
0,0,0,0,0,0,0,0,52,0,0,0,0,0,0,0,0,0,0,0,0,0,50,0,0,0,0,0,51,0,
0,0,0,0,0,0,0,0,0,0,0,0,0,0,0,0,0,0,0,0,0,0,0,0,0,0,0,0,0,0
</data>
 </layer>
 <layer id="2" name="walls" width="30" height="31">
  <data encoding="csv">
249,249,249,249,249,249,249,249,249,249,249,249,249,249,0,0,0,249,249,249,249,249,249,249,249,249,249,249,249,249,
249,0,0,0,0,0,0,0,0,0,0,0,0,908,0,0,0,908,0,0,0,0,0,0,0,0,0,0,0,249,
249,0,0,0,0,0,0,0,0,0,0,0,0,916,0,0,0,916,0,0,0,0,0,0,0,0,0,0,0,249,
249,0,571,571,571,571,571,571,0,573,573,573,573,0,0,0,0,0,572,572,572,572,572,572,0,571,571,571,571,249,
249,0,579,579,579,579,579,579,0,581,581,581,581,0,0,0,0,0,580,580,580,580,580,580,0,579,579,579,579,249,
249,0,587,587,587,587,587,587,0,465,466,472,467,0,0,0,0,0,588,588,588,588,588,588,0,417,424,418,419,249,
249,0,417,418,418,418,424,419,0,473,474,480,475,0,0,0,0,0,369,370,376,370,370,371,0,425,432,426,427,249,
249,0,425,426,426,426,432,427,0,0,0,0,0,0,0,0,0,0,377,378,384,378,378,379,0,0,0,0,0,249,
249,867,1606,867,0,0,0,0,0,0,0,0,0,1606,0,0,0,0,874,0,0,0,0,858,875,0,0,0,0,249,
249,0,0,0,0,0,0,0,0,0,0,0,0,0,0,0,0,0,0,0,0,0,0,0,0,0,0,0,0,249,
249,0,574,574,574,574,574,0,573,573,573,573,573,0,0,0,0,0,573,573,573,573,573,0,571,571,571,571,571,249,
249,0,582,582,582,582,582,0,581,581,581,581,581,0,0,0,0,0,581,581,581,581,581,0,579,579,579,579,579,249,
249,860,465,466,466,472,467,874,417,424,418,418,419,867,0,0,0,0,465,466,466,472,467,0,417,424,418,418,419,249,
249,908,473,474,474,480,475,184,425,432,426,426,427,0,0,0,0,0,473,474,474,480,475,184,425,432,426,426,427,249,
0,916,0,0,0,0,0,0,0,0,0,0,0,0,0,0,0,0,0,0,0,0,0,0,0,0,0,0,0,249,
0,0,0,0,0,0,0,0,0,0,0,0,0,0,0,0,0,0,0,0,0,0,0,0,0,0,0,0,0,249,
0,0,0,0,0,0,0,0,0,0,0,0,0,0,0,0,0,0,0,0,0,0,0,0,0,0,0,0,0,249,
249,0,0,0,0,0,0,0,0,0,0,0,0,0,0,0,0,908,0,0,0,0,0,0,0,0,0,0,0,249,
249,0,0,0,0,0,0,0,0,0,0,929,930,931,0,0,0,916,0,572,572,572,572,572,0,573,573,573,573,249,
249,0,571,571,571,571,571,571,0,0,0,937,938,939,0,0,0,0,0,580,580,580,580,580,0,581,581,581,581,249,
249,0,579,579,579,579,579,579,1173,1174,1175,1176,946,947,0,0,0,0,0,588,588,588,588,588,0,465,472,466,467,249,
249,0,587,587,587,587,587,587,0,0,0,231,232,0,0,0,0,908,0,369,370,376,370,371,0,473,480,474,475,249,
249,0,417,418,418,418,424,419,887,888,0,239,240,230,0,0,0,916,0,377,378,384,378,379,0,0,0,0,0,249,
249,0,425,426,426,426,432,427,895,896,0,0,857,238,0,0,0,1607,859,177,181,181,181,181,184,0,23,24,0,249,
249,867,1606,181,181,181,181,184,903,904,0,0,0,0,0,0,0,867,0,0,0,0,0,0,0,0,0,0,0,249,
249,0,0,0,0,0,0,0,0,0,0,0,0,0,0,0,0,0,0,571,571,571,571,571,571,0,0,0,0,249,
249,0,573,573,573,573,573,573,0,574,574,574,574,0,0,0,0,0,0,579,579,579,579,579,579,0,0,0,0,249,
249,0,581,581,581,581,581,581,0,582,582,582,582,0,0,0,0,0,0,417,418,418,418,424,419,0,0,0,0,249,
249,0,417,418,418,418,424,419,0,465,472,466,467,908,0,0,0,908,0,425,426,426,426,432,427,0,23,24,0,249,
249,0,425,426,426,426,432,427,0,473,480,474,475,916,0,0,0,916,0,0,0,0,0,0,0,0,0,0,0,249,
249,249,249,249,249,249,249,249,249,249,249,249,249,249,0,0,0,249,249,249,249,249,249,249,249,249,249,249,249,249
</data>
 </layer>
 <layer id="5" name="overhead" width="30" height="31">
  <data encoding="csv">
0,0,0,0,0,0,0,0,0,0,0,0,0,0,0,0,0,0,0,0,0,0,0,0,0,0,0,0,0,0,
0,0,0,0,0,0,0,0,0,0,0,0,0,0,0,0,0,0,0,0,0,0,0,0,0,0,0,0,0,0,
0,0,563,563,563,563,563,563,0,565,565,565,565,0,0,0,0,0,564,564,564,564,564,564,0,563,563,563,563,0,
0,0,0,568,0,0,0,0,0,0,0,0,0,0,0,0,0,0,0,0,0,0,568,0,0,0,0,0,0,0,
0,0,0,576,0,0,0,0,0,0,0,0,0,0,0,0,0,0,0,0,0,0,576,0,0,0,0,0,0,0,
0,0,0,584,0,0,0,0,0,0,594,471,0,0,0,0,0,0,0,0,0,0,584,0,0,0,423,594,0,0,
0,0,0,594,594,0,423,0,0,0,602,0,0,0,0,0,0,0,0,665,375,0,598,598,0,0,0,602,0,0,
0,0,0,602,602,0,0,0,0,0,0,0,0,0,0,0,0,0,0,0,0,0,606,606,0,0,0,0,0,0,
0,0,0,0,0,0,0,0,0,0,0,0,0,0,0,0,0,0,0,0,0,0,0,0,0,0,0,0,0,0,
0,0,566,566,566,566,566,0,565,565,565,565,565,0,0,0,0,0,565,565,565,565,565,0,563,563,563,563,563,0,
0,0,0,0,0,0,0,0,0,0,0,0,0,0,0,0,0,0,0,0,0,0,0,0,0,0,0,0,0,0,
0,0,0,0,0,0,0,0,0,0,0,0,0,0,0,0,0,0,0,0,0,0,0,0,0,0,0,0,0,0,
0,0,0,594,0,471,0,0,0,423,0,594,0,0,0,0,0,0,0,594,0,471,0,0,657,423,0,594,0,0,
0,0,0,602,0,0,0,0,0,0,0,602,0,0,0,0,0,0,0,602,0,0,0,0,0,0,0,602,0,0,
0,0,0,0,0,0,0,0,0,0,0,0,0,0,0,0,0,0,0,0,0,0,0,0,0,0,0,0,0,0,
0,0,0,0,0,0,0,0,0,0,0,0,0,0,0,0,0,0,0,0,0,0,0,0,0,0,0,0,0,0,
0,0,0,0,0,0,0,0,0,0,0,0,0,0,0,0,0,0,0,0,0,0,0,0,0,0,0,0,0,0,
0,0,0,0,0,0,0,0,0,0,0,0,0,0,0,0,0,0,0,564,564,564,564,564,0,565,565,565,565,0,
0,0,563,563,563,563,563,563,1149,1150,1151,1152,0,0,0,0,0,0,0,0,0,0,568,0,0,0,0,0,0,0,
0,0,0,568,0,0,0,0,1161,1162,1163,1164,0,0,0,0,0,0,0,0,0,0,576,0,0,0,0,0,0,0,
0,0,0,576,0,0,0,0,0,0,0,0,0,0,0,0,0,0,0,0,0,0,584,0,0,0,471,594,0,0,
0,0,0,584,0,0,0,0,0,0,0,0,0,0,0,0,0,0,0,598,661,375,0,598,0,0,0,602,0,0,
0,0,0,594,594,0,423,0,0,0,0,0,0,0,0,0,0,0,0,606,0,0,0,606,0,0,15,16,0,0,
0,0,0,602,602,0,0,0,0,0,0,0,0,0,0,0,0,0,0,0,0,0,0,0,0,0,0,0,0,0,
0,0,0,0,0,0,0,0,0,0,0,0,0,0,0,0,0,0,0,563,563,563,563,563,563,0,0,0,0,0,
0,0,565,565,565,565,565,565,0,566,566,566,566,0,0,0,0,0,0,0,0,0,0,0,0,0,0,0,0,0,
0,0,0,0,0,0,0,0,0,0,0,0,0,0,0,0,0,0,0,0,0,0,0,0,0,0,0,0,0,0,
0,0,0,0,0,0,0,0,0,0,0,0,0,0,0,0,0,0,0,0,594,594,0,423,0,0,15,16,0,0,
0,0,0,594,594,0,423,0,0,0,471,594,0,0,0,0,0,0,0,0,602,602,0,0,0,0,0,0,0,0,
0,0,0,602,602,0,0,0,0,0,0,602,0,0,0,0,0,0,0,0,0,0,0,0,0,0,0,0,0,0,
0,0,0,0,0,0,0,0,0,0,0,0,0,0,0,0,0,0,0,0,0,0,0,0,0,0,0,0,0,0
</data>
 </layer>
 <objectgroup id="3" name="spawn">
  <object id="1" name="player" x="496" y="656">
   <point/>
  </object>
 </objectgroup>
</map>
