<?xml version="1.0" encoding="UTF-8"?>
<map version="1.10" tiledversion="1.12.2" orientation="orthogonal" renderorder="right-down" width="32" height="26" tilewidth="32" tileheight="32" infinite="0" nextlayerid="8" nextobjectid="16">
 <tileset firstgid="1" name="pipoya-basechip" tilewidth="32" tileheight="32" tilecount="512" columns="8">
  <image source="../../../apps/client/public/tilesets/pipoya-basechip.png" width="256" height="2048"/>
 </tileset>
 <tileset firstgid="513" name="pipoya-basechip-2" tilewidth="32" tileheight="32" tilecount="512" columns="8">
  <image source="../../../apps/client/public/tilesets/pipoya-basechip-2.png" width="256" height="2048"/>
 </tileset>
 <tileset firstgid="1025" name="pipoya-basechip-3" tilewidth="32" tileheight="32" tilecount="40" columns="8">
  <image source="../../../apps/client/public/tilesets/pipoya-basechip-3.png" width="256" height="160"/>
 </tileset>
 <tileset firstgid="1065" name="pipoya-addwork" tilewidth="32" tileheight="32" tilecount="768" columns="12">
  <image source="../../../apps/client/public/tilesets/pipoya-addwork.png" width="384" height="2048"/>
 </tileset>
 <tileset firstgid="1833" name="pipoya-water" tilewidth="32" tileheight="32" tilecount="96" columns="8">
  <image source="../../../apps/client/public/tilesets/pipoya-water.png" width="256" height="384"/>
 </tileset>
 <layer id="1" name="ground" width="32" height="26">
  <data encoding="csv">
8,8,8,8,8,8,8,1228,1226,8,8,8,8,8,8,8,8,8,8,8,8,8,1225,1225,8,8,8,8,8,8,8,8,
8,8,8,8,8,8,8,8,1223,1227,8,8,8,8,8,8,8,8,8,8,8,8,1225,1226,8,8,8,8,8,8,8,8,
8,8,8,8,8,8,1225,1224,1226,8,8,8,8,8,8,8,8,8,8,8,8,8,8,1227,1224,8,8,8,8,8,8,8,
8,8,8,8,8,8,1224,1223,1225,8,8,8,8,8,8,8,8,8,8,8,8,8,8,8,1225,1223,8,8,8,8,8,8,
8,8,8,8,8,8,1226,1226,8,8,8,8,8,8,8,8,8,8,8,8,8,8,8,8,1227,1225,8,8,8,8,8,8,
8,8,1227,1224,8,8,1227,8,8,8,8,8,8,8,8,8,8,8,8,8,8,8,8,8,1226,1226,8,8,1228,1227,8,8,
1224,1223,1223,1225,8,8,8,8,8,8,8,8,8,8,8,8,8,8,8,8,8,8,8,8,8,8,8,8,1225,1225,1227,1227,
1224,1226,1228,8,8,8,8,8,8,8,8,8,8,8,8,8,8,8,8,8,8,8,8,8,8,8,8,8,1227,1225,1227,1227,
1223,8,8,8,8,8,8,8,8,8,8,8,8,8,8,8,8,8,8,8,8,8,8,8,8,8,8,8,8,8,8,1228,
1226,8,8,8,8,8,8,8,8,8,8,8,8,8,8,8,8,8,8,8,8,8,8,8,8,8,8,8,8,8,8,1228,
8,8,8,8,8,8,8,8,8,8,8,8,8,8,8,8,8,8,8,8,8,8,8,8,8,8,8,8,8,8,8,1223,
8,8,8,8,8,8,8,8,8,8,8,8,8,8,8,8,8,8,8,8,8,8,8,8,8,8,8,8,8,8,8,8,
8,8,8,8,8,8,8,8,8,8,8,8,8,8,8,8,8,8,8,8,8,8,8,1227,1225,8,8,8,8,8,8,8,
8,8,8,8,8,8,8,8,8,8,8,8,8,8,8,8,1228,1228,8,8,8,1227,1224,1227,1227,1224,1224,8,8,8,8,8,
8,8,8,8,8,8,8,8,8,8,8,8,8,8,8,8,1226,1224,1227,8,1225,1224,1227,1225,1225,1224,1228,1223,8,8,8,8,
8,8,8,8,8,8,8,8,8,8,8,8,8,8,1228,1228,1225,8,1223,1226,1226,1227,1224,1226,8,1225,1227,1227,1224,1223,8,8,
8,8,8,8,8,8,8,8,8,8,8,8,8,8,1227,1225,1227,8,1228,1224,1223,8,8,8,8,8,1228,1228,1226,1225,8,8,
8,8,8,8,8,8,8,8,8,8,1224,8,8,1223,1227,1224,1224,8,1227,1226,1224,8,8,8,8,8,8,8,8,1223,1224,1225,
8,1226,1224,1224,1228,8,8,8,1226,1227,1226,8,8,1225,1228,1226,8,8,8,8,8,8,8,8,8,8,8,8,8,1226,1223,1224,
8,1223,1226,1228,1224,1228,1227,8,1225,1228,1227,8,8,8,8,8,8,8,8,8,8,8,8,8,8,8,8,8,8,8,1224,8,
1224,1227,8,8,1227,1225,1228,1225,1228,1228,1226,8,8,8,8,8,8,8,8,8,8,8,8,8,8,8,8,8,8,8,8,8,
1224,8,8,8,1225,1223,1226,1223,8,8,8,8,8,8,8,8,8,8,8,8,8,8,8,8,8,8,8,8,8,8,8,8,
1223,8,8,8,8,8,1226,1228,8,8,8,8,8,8,8,8,8,8,8,8,8,8,8,8,8,8,8,8,8,8,8,8,
8,8,8,8,8,8,1223,1223,8,8,8,8,8,8,8,8,8,8,8,8,8,8,8,8,8,8,8,8,8,8,8,8,
8,8,8,8,8,8,8,8,8,8,8,8,8,8,8,8,8,8,8,8,8,8,8,8,8,8,8,8,8,8,8,8,
8,8,8,8,8,8,8,8,8,8,8,8,8,8,8,8,8,8,8,8,8,8,8,8,8,8,8,8,8,8,8,8
</data>
 </layer>
 <layer id="2" name="decor" width="32" height="26">
  <data encoding="csv">
0,0,0,0,0,0,1313,0,0,0,0,0,0,0,0,0,0,0,0,0,0,0,0,0,0,0,0,0,0,0,0,0,
0,0,0,0,0,0,0,0,0,0,0,0,0,0,0,0,0,0,0,0,45,0,0,0,0,0,51,0,0,0,0,0,
0,0,0,0,0,1313,0,0,0,65,0,0,0,0,0,0,0,0,65,0,44,44,0,0,0,0,0,45,0,0,0,0,
0,0,0,0,0,0,0,0,0,0,0,0,44,0,1314,0,0,0,0,0,0,0,52,44,0,0,0,0,0,0,0,0,
0,0,1313,0,0,0,0,0,0,1317,52,0,1313,0,0,0,0,0,0,0,0,0,1312,1313,0,0,0,0,0,0,0,0,
0,0,0,0,44,0,0,0,0,0,51,0,1312,0,0,0,0,0,0,0,51,65,0,1312,0,0,0,0,0,0,0,0,
0,0,0,0,0,0,0,0,0,0,0,0,0,0,0,0,0,51,0,0,0,0,0,0,0,0,0,0,0,0,0,0,
0,0,0,1313,0,0,0,0,0,0,45,0,0,1314,51,0,0,0,0,0,0,1312,52,0,0,0,0,0,0,0,0,0,
0,0,0,52,0,0,0,0,0,0,0,0,0,0,0,0,0,0,0,0,0,0,0,0,0,0,0,0,0,0,0,0,
0,0,65,0,0,65,0,0,0,0,0,0,0,0,0,0,0,0,0,0,0,0,0,0,0,1311,0,0,0,0,1317,0,
0,0,0,0,0,0,0,0,0,0,0,0,0,0,44,0,0,0,0,0,0,0,0,0,0,0,65,0,0,0,0,0,
0,0,1312,0,51,0,44,0,0,0,0,0,0,66,66,0,0,0,0,0,0,0,0,0,0,1313,0,0,66,0,0,0,
0,0,0,0,0,52,0,0,0,0,0,0,0,1317,1312,0,0,0,0,0,0,0,0,0,0,0,1317,0,0,0,0,0,
0,0,0,0,0,0,0,0,0,0,0,0,1311,0,1312,0,0,0,0,0,0,0,0,0,0,0,0,0,0,1311,0,44,
0,0,0,0,0,1311,0,0,0,0,0,0,0,0,51,0,0,0,0,0,0,0,0,0,0,0,0,0,0,0,0,0,
0,0,1311,0,0,0,0,0,0,0,0,0,0,0,0,0,0,0,0,0,0,0,0,0,66,0,0,0,0,0,0,0,
0,0,0,0,0,0,0,0,0,0,0,0,0,0,0,0,0,0,0,0,0,0,0,0,0,0,0,0,0,0,0,0,
0,0,0,0,0,0,0,0,0,0,0,0,0,0,0,0,0,0,0,0,0,0,65,0,0,0,0,0,0,0,0,0,
0,0,0,0,0,0,0,0,0,0,0,0,0,0,0,0,0,0,0,0,0,0,0,0,0,0,0,0,0,0,0,0,
0,0,0,0,0,0,0,0,0,0,0,0,1314,0,0,0,0,0,66,0,0,0,0,0,0,0,0,0,0,0,0,0,
0,0,0,0,0,0,0,0,0,0,0,45,0,51,0,0,0,0,0,0,0,45,0,0,0,1313,0,0,0,0,0,0,
0,0,0,0,0,0,0,0,0,0,0,65,0,45,0,0,0,0,51,0,0,52,0,0,0,44,0,0,0,0,0,0,
0,0,0,0,0,0,0,0,0,0,0,45,0,0,0,0,0,0,0,0,0,0,0,1311,0,44,0,0,0,0,0,0,
0,44,0,0,0,0,0,0,0,0,0,52,1313,0,0,0,0,0,0,0,0,0,0,0,45,0,0,1313,0,0,0,0,
0,0,0,0,0,0,0,0,0,0,0,1317,0,0,0,0,0,0,51,1314,0,0,0,0,0,0,0,0,0,0,0,0,
0,0,0,0,0,0,0,0,0,0,0,0,0,0,0,0,0,0,1313,0,44,0,0,0,0,0,0,0,0,0,0,0
</data>
 </layer>
 <layer id="3" name="walls" width="32" height="26">
  <data encoding="csv">
0,0,0,1316,1314,66,0,1177,1167,0,0,0,1314,1316,1313,0,0,0,66,66,1315,0,1165,1167,1314,1314,1313,66,0,0,1315,1313,
0,0,0,0,0,0,0,0,1165,1208,0,0,0,0,0,0,0,0,0,0,1314,0,1177,1167,66,0,0,0,0,0,0,1314,
1314,0,0,0,0,0,1153,1154,1167,0,0,0,0,0,0,0,0,0,0,0,0,0,0,1177,1155,0,0,0,0,0,0,1313,
65,1153,1154,1154,1154,1155,1165,1226,1179,0,0,0,0,0,0,0,0,0,0,0,0,0,0,0,1165,1155,0,0,0,0,0,0,
0,0,0,0,0,0,1165,1179,0,0,0,0,0,0,0,0,0,0,0,0,0,0,0,0,1165,1167,0,0,0,0,0,0,
0,0,0,0,0,0,1166,0,0,0,0,0,0,0,0,0,0,0,0,0,0,0,0,0,1177,1179,0,0,1153,1155,0,0,
1154,1154,1154,1155,0,0,0,0,0,0,0,0,0,0,0,0,0,0,0,0,0,0,0,0,0,0,0,0,1165,1227,1154,1154,
1227,1178,1179,0,0,0,0,0,0,0,0,0,0,0,0,0,0,0,0,0,0,0,0,0,0,0,0,0,1177,1178,1178,1225,
1167,0,0,0,0,0,0,0,0,0,0,0,0,0,0,0,0,0,0,0,0,0,0,0,0,0,0,0,0,0,0,1165,
1179,66,0,0,0,0,0,0,0,0,0,0,0,0,0,0,0,0,0,0,0,0,0,0,0,0,0,0,0,0,0,1165,
65,66,0,0,0,0,0,0,0,0,0,0,0,0,0,0,0,0,0,0,0,0,0,0,1314,0,0,0,0,0,0,1177,
1313,0,0,0,0,0,0,0,0,0,0,0,0,0,0,0,0,0,0,0,0,0,0,0,0,0,0,0,0,0,0,0,
0,0,0,0,0,0,0,0,0,0,0,0,0,0,0,0,0,0,0,0,0,0,1315,1153,1155,0,0,0,0,0,0,65,
0,0,0,0,0,0,0,0,0,0,0,0,0,0,0,0,1153,1155,0,0,0,1153,1154,1223,1226,1154,1155,0,0,0,0,1314,
0,0,0,0,0,0,0,0,0,0,0,0,0,0,0,0,1165,1178,1155,0,1153,1224,1223,1228,1178,1223,1226,1155,0,0,0,1316,
65,0,0,0,0,0,0,0,0,0,0,0,0,0,1153,1154,1167,0,1165,1154,1224,1178,1178,1179,0,1177,1226,1224,1154,1155,0,0,
1314,1313,0,0,0,0,0,0,0,0,0,0,0,0,1165,1227,1167,0,1165,1227,1167,1314,0,0,0,0,1177,1178,1178,1167,0,0,
0,0,0,0,0,0,0,0,1316,1314,1166,0,0,1153,1225,1223,1179,0,1177,1178,1179,0,0,1315,0,0,0,0,0,1165,1154,1154,
0,1153,1154,1154,1155,0,0,0,1153,1154,1167,0,0,1177,1178,1179,0,0,0,0,0,0,0,0,0,0,0,0,0,1177,1226,1178,
0,1165,1178,1178,1226,1154,1155,0,1165,1223,1167,0,0,0,0,0,0,0,0,0,0,0,0,0,0,0,0,0,1313,1314,1193,0,
1154,1179,0,0,1165,1224,1224,1154,1178,1178,1179,0,0,0,0,0,0,0,0,0,0,0,0,0,0,0,0,0,0,0,1316,0,
1167,0,0,0,1177,1178,1225,1167,0,0,0,0,0,0,0,0,0,0,0,0,0,0,0,0,0,0,0,0,0,0,0,0,
1179,0,0,0,0,0,1165,1167,0,0,0,0,0,908,0,0,0,861,0,0,0,0,0,0,0,0,0,0,0,0,0,0,
66,0,23,24,0,0,1177,1179,0,0,0,0,0,916,0,0,0,0,869,0,0,0,0,0,0,0,0,0,23,24,0,1315,
0,0,0,0,0,0,0,0,0,0,0,0,1606,0,0,0,0,0,0,0,0,0,0,1313,0,0,0,0,0,0,0,0,
23,24,1313,0,1315,0,0,0,66,65,66,0,0,0,0,0,0,0,0,0,0,0,1314,66,0,0,23,24,0,0,23,24
</data>
 </layer>
 <layer id="6" name="overhead" width="32" height="26">
  <data encoding="csv">
0,0,0,0,0,0,0,0,0,0,0,0,0,0,0,0,0,0,0,0,0,0,0,0,0,0,0,0,0,0,0,0,
0,0,0,0,0,0,0,0,0,0,0,0,0,0,0,0,0,0,0,0,0,0,0,0,0,0,0,0,0,0,0,0,
0,0,0,0,0,0,0,0,0,0,0,0,0,0,0,0,0,0,0,0,0,0,0,0,0,0,0,0,0,0,0,0,
0,0,0,0,0,0,0,0,0,0,0,0,0,0,0,0,0,0,0,0,0,0,0,0,0,0,0,0,0,0,0,0,
0,0,0,0,0,0,0,0,0,0,0,0,0,0,0,0,0,0,0,0,0,0,0,0,0,0,0,0,0,0,0,0,
0,0,0,0,0,0,0,0,0,0,0,0,0,0,0,0,0,0,0,0,0,0,0,0,0,0,0,0,0,0,0,0,
0,0,0,0,0,0,0,0,0,0,0,0,0,0,0,0,0,0,0,0,0,0,0,0,0,0,0,0,0,0,0,0,
0,0,0,0,0,0,0,0,0,0,0,0,0,0,0,0,0,0,0,0,0,0,0,0,0,0,0,0,0,0,0,0,
0,0,0,0,0,0,0,0,0,0,0,0,0,0,0,0,0,0,0,0,0,0,0,0,0,0,0,0,0,0,0,0,
0,0,0,0,0,0,0,0,0,0,0,0,0,0,0,0,0,0,0,0,0,0,0,0,0,0,0,0,0,0,0,0,
0,0,0,0,0,0,0,0,0,0,0,0,0,0,0,0,0,0,0,0,0,0,0,0,0,0,0,0,0,0,0,0,
0,0,0,0,0,0,0,0,0,0,0,0,0,0,0,0,0,0,0,0,0,0,0,0,0,0,0,0,0,0,0,0,
0,0,0,0,0,0,0,0,0,0,0,0,0,0,0,0,0,0,0,0,0,0,0,0,0,0,0,0,0,0,0,0,
0,0,0,0,0,0,0,0,0,0,0,0,0,0,0,0,0,0,0,0,0,0,0,0,0,0,0,0,0,0,0,0,
0,0,0,0,0,0,0,0,0,0,0,0,0,0,0,0,0,0,0,0,0,0,0,0,0,0,0,0,0,0,0,0,
0,0,0,0,0,0,0,0,0,0,0,0,0,0,0,0,0,0,0,0,0,0,0,0,0,0,0,0,0,0,0,0,
0,0,0,0,0,0,0,0,0,0,0,0,0,0,0,0,0,0,0,0,0,0,0,0,0,0,0,0,0,0,0,0,
0,0,0,0,0,0,0,0,0,0,0,0,0,0,0,0,0,0,0,0,0,0,0,0,0,0,0,0,0,0,0,0,
0,0,0,0,0,0,0,0,0,0,0,0,0,0,0,0,0,0,0,0,0,0,0,0,0,0,0,0,0,0,0,0,
0,0,0,0,0,0,0,0,0,0,0,0,0,0,0,0,0,0,0,0,0,0,0,0,0,0,0,0,0,0,0,0,
0,0,0,0,0,0,0,0,0,0,0,0,0,0,0,0,0,0,0,0,0,0,0,0,0,0,0,0,0,0,0,0,
0,0,0,0,0,0,0,0,0,0,0,0,0,0,0,0,0,0,0,0,0,0,0,0,0,0,0,0,0,0,0,0,
0,0,15,16,0,0,0,0,0,0,0,0,0,0,0,0,0,0,0,0,0,0,0,0,0,0,0,0,15,16,0,0,
0,0,0,0,0,0,0,0,0,0,0,0,0,0,0,0,0,0,0,0,0,0,0,0,0,0,0,0,0,0,0,0,
15,16,0,0,0,0,0,0,0,0,0,0,0,0,0,0,0,0,0,0,0,0,0,0,0,0,15,16,0,0,15,16,
0,0,0,0,0,0,0,0,0,0,0,0,0,0,0,0,0,0,0,0,0,0,0,0,0,0,0,0,0,0,0,0
</data>
 </layer>
 <objectgroup id="4" name="spawn">
  <object id="1" name="player" x="496" y="784">
   <point/>
  </object>
 </objectgroup>
 <objectgroup id="5" name="nodes">
  <object id="2" x="112" y="80">
   <properties>
    <property name="nodeId" value="deep_ice_vein"/>
    <property name="instanceId" value="deep_ice_vein-2"/>
   </properties>
   <point/>
  </object>
  <object id="3" x="48" y="48">
   <properties>
    <property name="nodeId" value="deep_ice_vein"/>
    <property name="instanceId" value="deep_ice_vein-3"/>
   </properties>
   <point/>
  </object>
  <object id="4" x="240" y="48">
   <properties>
    <property name="nodeId" value="deep_ice_vein"/>
    <property name="instanceId" value="deep_ice_vein-4"/>
   </properties>
   <point/>
  </object>
  <object id="5" x="48" y="80">
   <properties>
    <property name="nodeId" value="deep_ice_vein"/>
    <property name="instanceId" value="deep_ice_vein-5"/>
   </properties>
   <point/>
  </object>
  <object id="6" x="304" y="688">
   <properties>
    <property name="nodeId" value="ice_vein"/>
    <property name="instanceId" value="ice_vein-3"/>
   </properties>
   <point/>
  </object>
  <object id="7" x="144" y="720">
   <properties>
    <property name="nodeId" value="ice_vein"/>
    <property name="instanceId" value="ice_vein-4"/>
   </properties>
   <point/>
  </object>
  <object id="8" x="208" y="784">
   <properties>
    <property name="nodeId" value="ice_vein"/>
    <property name="instanceId" value="ice_vein-5"/>
   </properties>
   <point/>
  </object>
  <object id="9" x="528" y="400">
   <properties>
    <property name="nodeId" value="ice_vein"/>
    <property name="instanceId" value="ice_vein-6"/>
   </properties>
   <point/>
  </object>
  <object id="10" x="624" y="464">
   <properties>
    <property name="nodeId" value="ice_vein"/>
    <property name="instanceId" value="ice_vein-7"/>
   </properties>
   <point/>
  </object>
  <object id="11" x="688" y="400">
   <properties>
    <property name="nodeId" value="ice_vein"/>
    <property name="instanceId" value="ice_vein-8"/>
   </properties>
   <point/>
  </object>
  <object id="12" x="848" y="560">
   <properties>
    <property name="nodeId" value="ice_vein"/>
    <property name="instanceId" value="ice_vein-9"/>
   </properties>
   <point/>
  </object>
  <object id="13" x="912" y="592">
   <properties>
    <property name="nodeId" value="ice_vein"/>
    <property name="instanceId" value="ice_vein-10"/>
   </properties>
   <point/>
  </object>
 </objectgroup>
 <objectgroup id="7" name="places">
  <object id="14" name="초소" x="528" y="752">
   <properties>
    <property name="facing" value="down"/>
   </properties>
   <point/>
  </object>
  <object id="15" name="심층광맥곁" x="112" y="144">
   <properties>
    <property name="facing" value="up"/>
   </properties>
   <point/>
  </object>
 </objectgroup>
</map>
