<?xml version="1.0" encoding="UTF-8"?>
<map version="1.10" tiledversion="1.12.2" orientation="orthogonal" renderorder="right-down" width="60" height="40" tilewidth="32" tileheight="32" infinite="0" nextlayerid="6" nextobjectid="2">
 <tileset firstgid="1" name="pipoya-basechip" tilewidth="32" tileheight="32" tilecount="512" columns="8">
  <image source="../../../apps/client/public/tilesets/pipoya-basechip.png" width="256" height="2048"/>
 </tileset>
 <tileset firstgid="513" name="pipoya-basechip-2" tilewidth="32" tileheight="32" tilecount="512" columns="8">
  <image source="../../../apps/client/public/tilesets/pipoya-basechip-2.png" width="256" height="2048"/>
 </tileset>
 <tileset firstgid="1025" name="pipoya-basechip-3" tilewidth="32" tileheight="32" tilecount="40" columns="8">
  <image source="../../../apps/client/public/tilesets/pipoya-basechip-3.png" width="256" height="160"/>
 </tileset>
 <tileset firstgid="1065" name="pipoya-addwork" tilewidth="32" tileheight="32" tilecount="768" columns="12">
  <image source="../../../apps/client/public/tilesets/pipoya-addwork.png" width="384" height="2048"/>
 </tileset>
 <tileset firstgid="1833" name="pipoya-water" tilewidth="32" tileheight="32" tilecount="96" columns="8">
  <image source="../../../apps/client/public/tilesets/pipoya-water.png" width="256" height="384"/>
 </tileset>
 <layer id="1" name="ground" width="60" height="40">
  <data encoding="csv">
7,7,7,7,7,7,7,7,7,7,7,7,7,7,7,7,7,7,7,7,7,7,7,7,7,7,7,7,7,289,289,289,7,7,7,7,7,7,7,7,7,7,7,7,7,7,7,7,7,7,7,7,7,7,7,7,7,7,7,7,
5,5,5,5,5,5,7,7,7,7,7,7,7,7,7,7,7,5,5,5,5,5,5,7,7,7,7,7,7,289,289,289,7,7,7,7,7,7,7,7,7,7,7,7,7,7,7,7,7,7,7,7,7,7,7,7,7,7,7,7,
5,5,5,5,5,5,7,7,7,7,7,7,7,7,7,7,7,5,5,5,5,5,5,5,7,7,7,7,7,289,289,289,7,7,7,7,7,7,7,7,7,7,7,7,7,7,7,7,7,7,7,7,7,7,7,7,7,7,7,7,
7,7,7,7,7,7,7,7,7,7,7,7,7,7,7,7,7,5,5,5,7,7,7,7,7,7,7,7,7,289,289,289,7,7,7,7,7,7,7,7,7,7,7,7,7,7,7,7,7,7,7,7,7,7,7,7,7,7,7,7,
7,7,7,7,7,7,7,7,7,5,5,5,7,7,7,7,7,7,7,7,7,7,7,7,7,7,7,7,7,289,289,289,5,5,7,7,7,7,7,7,7,7,7,7,7,7,7,7,7,7,7,7,7,7,7,7,7,7,7,7,
7,7,7,7,7,7,7,7,5,5,5,5,5,5,7,7,7,7,7,7,7,7,7,7,7,7,7,7,7,289,289,289,5,5,5,5,5,7,7,7,7,7,7,7,7,7,7,7,7,7,7,7,7,7,5,5,5,5,5,5,
7,7,7,7,7,7,7,7,5,5,5,5,5,5,5,5,7,7,7,7,7,7,7,7,7,7,7,7,7,289,289,289,5,5,5,5,5,5,7,7,7,7,7,7,7,7,7,7,7,7,7,7,7,7,5,5,5,5,5,5,
7,7,7,7,7,7,7,7,7,5,5,5,5,5,5,7,7,7,7,7,7,7,7,7,7,7,7,7,7,289,289,289,7,7,7,5,5,5,5,5,7,7,7,7,7,7,7,7,7,7,7,7,7,7,5,5,5,5,5,5,
7,7,7,7,7,7,5,5,5,5,5,5,5,7,7,7,7,7,7,7,7,7,7,7,7,7,7,7,7,289,289,289,7,7,7,5,5,5,5,7,7,7,7,7,323,323,323,323,323,7,7,7,7,7,5,5,5,5,7,7,
7,7,7,7,7,7,5,5,5,5,5,5,5,7,7,7,7,7,7,5,5,5,7,7,7,7,7,7,7,289,289,289,7,7,7,5,5,5,5,7,7,7,7,7,323,323,323,323,323,7,7,7,7,7,7,7,7,7,7,7,
7,7,7,7,7,7,5,5,5,5,5,5,5,5,5,5,5,7,7,5,5,5,7,7,7,7,7,7,7,289,289,289,7,7,7,5,5,5,5,5,7,7,7,7,323,323,323,323,323,7,7,7,7,7,7,7,7,7,7,7,
7,7,7,7,7,7,5,5,5,5,5,5,5,5,5,5,5,5,5,5,5,5,5,5,5,7,7,7,7,289,289,289,7,7,7,7,7,7,7,7,7,7,7,7,323,323,323,323,323,5,7,7,7,7,7,7,7,7,7,7,
289,289,289,289,289,289,289,289,289,289,289,289,289,289,289,289,289,289,289,289,289,289,289,289,289,289,289,289,289,289,289,289,289,289,289,289,289,289,289,289,289,289,289,289,289,289,289,289,289,289,289,289,289,289,289,289,289,289,289,289,
289,289,289,289,289,289,289,289,289,289,289,289,289,289,289,289,289,289,289,289,289,289,289,289,289,289,289,289,289,289,289,289,289,289,289,289,289,289,289,289,289,289,289,289,289,289,289,289,289,289,289,289,289,289,289,289,289,289,289,289,
289,289,289,289,289,289,289,289,289,289,289,289,289,289,289,289,289,289,289,289,289,289,289,289,289,289,289,289,289,289,289,289,289,289,289,289,289,289,289,289,289,289,289,289,289,289,289,289,289,289,289,289,289,289,289,289,289,289,289,289,
5,5,5,7,7,7,7,7,5,5,5,7,7,7,7,7,7,7,7,7,7,7,7,7,7,5,5,5,5,289,289,289,5,5,5,5,5,5,7,7,7,7,7,7,7,7,7,7,7,7,7,7,7,7,7,7,7,7,7,7,
5,5,5,5,7,7,7,7,5,5,5,7,7,7,7,7,7,7,7,7,7,7,7,7,7,7,7,7,7,289,289,289,5,5,5,5,5,7,7,7,7,7,7,7,7,7,7,7,7,7,7,7,7,5,5,5,5,5,5,5,
5,5,5,5,7,7,7,7,5,5,5,5,5,5,5,5,5,7,7,7,7,7,7,7,7,7,7,7,7,289,289,289,7,7,7,5,5,5,7,7,7,7,7,7,7,7,7,7,7,7,7,7,7,5,5,5,5,5,5,5,
7,7,7,7,7,7,7,7,7,7,7,7,7,7,5,5,5,5,5,5,5,7,7,5,5,5,5,5,5,289,289,289,7,7,7,5,5,5,5,5,5,5,7,7,5,5,5,5,5,5,5,7,7,5,5,5,5,5,5,5,
7,7,7,7,7,7,7,7,7,7,7,7,7,7,5,5,5,5,5,5,5,5,7,5,5,5,7,7,7,289,289,289,7,7,7,7,7,7,7,7,7,7,7,7,5,5,5,5,7,7,7,7,7,5,5,5,5,5,5,5,
7,7,7,7,7,7,7,7,7,7,7,7,7,7,7,7,7,7,7,5,5,5,5,5,5,5,7,7,7,289,289,289,7,7,7,7,7,7,7,7,7,7,7,7,5,5,5,7,7,7,7,7,7,7,7,5,5,5,5,5,
7,7,5,5,5,7,7,7,7,7,7,7,7,7,7,7,7,7,7,5,5,5,5,5,5,5,7,7,7,289,289,289,7,7,7,7,7,7,7,7,7,7,7,7,5,5,5,5,5,7,7,7,7,7,7,7,7,7,7,7,
7,7,5,5,5,5,5,5,5,7,7,7,7,7,7,7,7,5,5,5,5,5,5,7,7,7,7,7,7,289,289,289,7,7,7,7,7,7,7,7,7,7,7,7,7,7,7,7,7,7,7,7,7,7,7,7,7,7,7,7,
7,7,5,5,5,5,5,5,5,7,7,7,7,7,7,7,7,5,5,5,7,7,7,7,7,7,7,7,7,289,289,289,7,7,7,7,7,7,7,7,7,7,7,7,7,7,7,7,7,7,7,7,7,7,7,7,7,7,7,7,
7,7,5,5,5,5,5,5,7,7,7,7,7,7,7,7,7,7,7,7,7,7,7,7,7,7,7,7,7,289,289,289,7,7,7,7,7,7,7,7,7,7,7,7,7,7,7,7,7,7,7,7,7,7,7,7,7,7,7,7,
7,7,7,7,7,7,7,7,7,7,7,7,7,7,7,7,7,7,7,7,7,7,7,7,7,7,7,7,7,289,289,289,7,7,7,7,7,7,7,7,7,7,7,7,7,7,7,7,7,7,7,7,7,7,7,7,7,7,7,7,
7,7,7,7,7,7,7,7,7,7,7,7,7,7,7,7,7,7,7,7,7,7,7,7,7,7,7,7,7,289,289,289,7,7,7,7,7,7,7,7,7,7,7,7,7,7,7,7,7,7,7,7,7,7,7,7,7,7,7,7,
7,7,7,7,7,7,7,7,7,7,7,7,7,7,7,7,7,7,7,7,7,7,7,7,7,7,7,5,5,289,289,289,5,5,5,7,7,7,7,7,7,7,7,7,7,7,7,7,7,7,7,7,7,7,7,7,7,7,7,7,
7,7,7,7,7,7,7,7,7,7,7,7,7,7,7,7,7,7,7,7,7,7,7,7,7,7,7,5,5,289,289,289,5,5,5,5,7,7,7,7,7,7,7,7,7,7,7,7,7,7,7,7,7,7,7,7,7,7,7,7,
7,7,7,7,7,7,7,7,7,7,7,7,7,7,7,5,5,5,7,7,7,5,5,5,5,5,5,5,5,289,289,289,5,5,5,5,5,5,7,7,7,7,7,7,7,7,7,7,7,7,7,7,7,7,7,7,7,7,7,7,
7,7,5,5,5,5,7,7,7,7,7,7,7,7,7,5,5,5,5,5,5,5,5,5,7,7,7,7,7,289,289,289,7,7,7,7,7,7,7,7,7,7,5,5,5,5,5,7,7,7,7,7,7,7,7,7,7,7,7,7,
497,497,497,497,497,497,497,497,497,497,497,497,497,497,497,497,497,497,497,497,497,497,497,497,497,497,497,497,497,497,497,497,497,497,497,497,497,497,497,497,497,497,497,497,497,497,497,497,497,497,497,497,497,497,497,497,497,497,497,497,
497,497,497,497,497,497,497,497,497,497,497,497,497,497,497,497,497,497,497,497,497,497,497,497,497,497,497,497,497,497,497,497,497,497,497,497,497,497,497,497,497,497,497,497,497,497,497,497,497,497,497,497,497,497,497,497,497,497,497,497,
497,497,497,497,497,497,497,497,497,497,497,497,497,497,497,497,497,497,497,497,497,497,497,497,497,497,497,497,497,497,497,497,497,497,497,497,497,497,497,497,497,497,497,497,497,497,497,497,497,497,497,497,497,497,497,497,497,497,497,497,
289,289,289,289,289,289,289,289,289,289,289,289,289,289,289,289,289,289,289,289,289,289,289,289,289,289,289,289,289,289,289,289,289,289,289,289,289,289,289,289,289,289,289,289,289,289,289,289,289,289,289,289,289,289,289,289,289,289,289,289,
289,289,289,289,289,289,289,289,289,289,289,289,289,289,289,289,289,289,289,289,289,289,289,289,289,289,289,289,289,289,289,289,289,7,7,7,7,7,7,7,7,7,7,7,289,289,289,289,289,289,289,289,289,289,289,289,289,289,289,289,
289,289,289,289,289,289,7,7,7,7,7,7,7,7,7,7,289,289,289,289,289,289,289,289,7,7,7,7,7,497,497,497,7,7,7,7,7,7,7,7,7,7,7,7,7,7,7,7,7,289,289,289,289,289,289,289,289,7,7,7,
7,7,7,7,7,7,7,7,7,7,7,7,7,7,7,7,7,7,7,7,7,7,7,7,7,7,7,7,7,497,497,497,7,7,7,7,7,7,7,7,7,7,7,7,7,7,7,7,7,7,7,7,7,7,7,7,7,7,7,7,
7,7,7,7,7,7,7,7,7,7,7,7,7,7,7,7,7,7,7,7,7,7,7,7,7,7,7,7,7,497,497,497,7,7,7,7,7,7,7,7,7,7,7,7,7,7,7,7,7,7,7,7,7,7,7,7,7,7,7,7,
7,7,7,7,7,7,7,7,7,7,7,7,7,7,7,7,7,7,7,7,7,7,7,7,7,7,7,7,7,7,7,7,7,7,7,7,7,7,7,7,7,7,7,7,7,7,7,7,7,7,7,7,7,7,7,7,7,7,7,7
</data>
 </layer>
 <layer id="4" name="decor" width="60" height="40">
  <data encoding="csv">
0,0,0,0,0,0,0,0,0,0,0,0,0,0,0,0,0,0,0,0,0,0,0,0,0,0,0,0,0,0,0,0,0,0,0,0,0,0,0,0,0,0,0,0,0,0,0,0,0,0,0,0,0,0,0,0,0,0,0,0,
0,53,50,0,53,0,41,0,0,0,0,0,0,0,0,0,0,0,0,0,0,41,0,0,0,0,0,0,0,0,0,0,0,0,0,0,0,0,0,0,0,0,50,0,0,0,0,0,0,0,0,0,0,0,0,0,0,0,0,0,
0,0,0,0,0,0,0,0,0,0,0,0,0,0,0,0,0,0,41,0,0,51,0,50,0,0,0,0,0,0,0,0,0,0,0,0,0,0,0,0,0,0,0,0,0,0,0,0,0,0,0,0,0,0,0,0,0,0,0,0,
0,0,0,0,0,0,0,0,0,0,0,0,0,0,0,0,0,0,0,0,65,0,0,0,0,0,0,0,0,0,0,0,0,0,0,0,0,0,0,0,0,0,0,0,0,0,0,0,0,0,0,0,0,0,0,0,0,0,0,0,
0,0,0,0,0,0,0,0,0,53,0,0,0,0,0,0,0,0,0,0,0,0,0,0,0,0,0,0,0,0,0,0,0,0,0,0,0,0,0,0,0,0,0,0,0,0,0,0,0,0,0,0,0,0,0,0,0,0,0,0,
0,0,0,0,0,0,0,0,0,0,0,0,0,0,0,0,0,0,0,0,0,0,0,0,0,0,0,0,41,0,0,0,0,0,0,0,0,0,0,0,41,0,53,0,0,0,0,0,0,0,0,0,0,0,0,0,0,0,0,0,
0,0,0,0,0,0,0,0,0,0,0,0,0,0,0,0,0,0,0,0,0,0,0,0,0,0,0,0,0,0,0,0,0,0,0,0,0,0,0,0,0,0,0,0,0,0,0,0,0,0,0,0,0,0,0,0,0,0,0,0,
0,0,0,0,0,0,0,0,0,0,0,0,0,0,0,0,0,0,0,0,0,0,0,0,0,51,0,0,0,0,0,0,0,0,0,0,0,0,0,0,0,0,53,0,0,0,0,0,0,41,0,0,0,0,0,0,0,0,0,0,
0,0,0,0,0,0,41,0,0,0,0,0,0,41,0,0,0,0,0,0,0,0,0,0,0,0,0,0,0,0,0,0,0,0,0,0,0,0,0,0,65,0,0,0,0,0,0,0,0,0,0,0,0,0,0,0,0,0,0,0,
0,0,0,0,0,65,0,0,0,0,0,0,0,0,0,0,0,0,0,0,0,0,0,0,0,0,0,0,0,0,0,0,0,0,0,0,0,0,0,0,0,0,0,0,0,0,0,0,0,0,0,0,0,0,0,0,0,0,0,0,
0,0,0,0,0,0,0,51,0,0,0,0,0,0,0,0,0,0,0,0,53,0,0,0,0,0,0,0,0,0,0,0,0,0,0,0,0,0,0,0,0,0,0,0,0,0,0,0,0,0,0,0,0,0,41,0,0,0,0,0,
0,0,0,0,0,0,0,0,0,53,65,0,0,0,0,0,0,0,0,0,0,0,0,41,0,0,0,0,0,0,0,0,0,0,0,0,0,0,50,0,0,0,0,0,0,0,0,0,0,0,0,0,0,0,0,0,0,0,0,0,
0,0,0,0,0,0,0,0,0,0,0,0,0,0,0,0,0,0,0,0,0,0,0,0,0,0,0,0,0,0,0,0,0,0,0,0,0,0,0,0,0,0,0,0,0,0,0,0,0,0,0,0,0,0,0,0,0,0,0,0,
0,0,0,0,0,0,0,0,0,0,0,0,0,0,0,0,0,0,0,0,0,0,0,0,0,0,0,0,0,0,0,0,0,0,0,0,0,0,0,0,0,0,0,0,0,0,0,0,0,0,0,0,0,0,0,0,0,0,0,0,
0,0,0,0,0,0,0,0,0,0,0,0,0,0,0,0,0,0,0,0,0,0,0,0,0,0,0,0,0,0,0,0,0,0,0,0,0,0,0,0,0,0,0,0,0,0,0,0,0,0,0,0,0,0,0,0,0,0,0,0,
0,0,0,0,0,0,0,0,0,0,0,0,0,0,0,0,0,0,0,0,0,0,0,0,0,0,0,0,0,0,0,0,0,0,0,0,0,0,0,0,65,0,0,0,0,0,0,0,0,0,0,0,0,0,0,0,0,0,0,0,
0,0,0,0,0,65,0,0,0,0,0,50,0,0,0,41,0,0,0,0,51,0,0,0,0,50,0,0,0,0,0,0,0,0,0,0,0,51,0,0,0,0,0,0,0,0,0,0,0,0,0,0,0,50,0,0,0,0,0,0,
0,53,0,0,0,0,0,0,0,0,0,0,0,0,0,0,0,0,0,0,0,0,0,0,0,0,0,65,41,0,0,0,0,0,0,0,0,0,0,0,0,0,0,0,0,0,0,0,0,0,0,0,0,0,0,41,0,0,41,0,
0,0,0,0,0,0,0,0,0,0,0,0,0,0,0,0,0,0,0,0,0,0,0,0,0,0,0,0,0,0,0,0,0,0,0,0,0,0,0,0,53,0,0,0,0,0,0,0,0,0,0,0,0,0,0,0,0,0,0,0,
0,65,0,0,0,0,0,0,0,0,0,0,0,0,0,0,41,0,0,0,0,0,0,0,0,0,0,0,51,0,0,0,0,0,0,0,0,0,0,0,0,0,0,0,0,0,0,0,53,0,0,0,0,0,0,0,0,0,0,0,
0,0,0,0,0,0,0,0,0,0,0,0,0,0,0,0,0,0,0,0,0,0,0,0,0,0,0,0,0,0,0,0,0,0,0,0,0,0,0,0,0,0,0,0,0,0,0,0,0,0,0,0,0,0,0,0,0,0,0,0,
0,0,0,0,0,0,0,0,0,0,0,0,0,0,0,0,0,0,0,0,0,0,50,0,0,0,0,0,0,0,0,0,0,0,0,0,0,0,0,0,0,0,0,0,0,0,0,0,0,0,0,0,0,0,0,0,0,0,65,0,
0,0,0,0,0,0,65,0,0,0,0,0,0,0,0,0,0,0,0,0,0,0,0,0,0,0,0,0,0,0,0,0,0,0,0,0,0,0,0,0,0,0,0,0,0,0,0,0,0,0,0,0,0,0,0,0,0,0,0,0,
0,0,0,0,0,0,0,0,0,0,0,0,0,0,0,0,0,0,0,0,0,0,0,0,0,0,0,0,0,0,0,0,0,0,0,0,0,0,0,0,0,0,0,0,0,0,0,0,0,0,0,0,0,0,0,0,0,0,0,0,
0,0,0,0,0,0,0,0,0,0,0,0,0,0,0,0,0,0,0,50,0,0,0,0,0,0,0,0,0,0,0,0,0,41,0,0,0,0,0,0,0,0,0,0,0,0,0,0,0,0,0,50,0,0,0,0,0,0,65,0,
0,0,0,0,0,0,0,0,0,0,0,0,0,0,0,0,0,0,0,0,0,0,0,0,0,65,0,51,0,0,0,0,0,0,0,0,0,41,0,0,0,0,0,0,0,0,0,0,0,0,0,0,0,0,0,0,0,0,0,0,
0,0,0,0,0,0,0,0,0,0,0,0,0,0,0,0,0,0,0,0,0,0,0,0,0,0,0,0,0,0,0,0,0,0,0,0,0,0,0,0,0,0,0,0,0,0,0,0,0,0,0,0,0,0,0,0,0,0,0,0,
0,0,0,0,0,0,0,0,0,0,0,0,0,0,0,0,0,0,0,0,0,0,0,0,0,0,0,0,0,0,0,0,0,0,0,0,0,0,0,0,0,0,0,0,0,0,0,0,0,0,0,0,0,0,0,0,0,0,0,0,
0,0,0,0,0,0,0,0,0,0,0,0,53,0,0,0,0,0,0,0,0,0,0,0,0,0,0,0,0,0,0,0,0,0,0,0,0,0,0,0,0,0,0,0,0,0,0,0,0,0,0,0,0,0,0,0,0,0,0,0,
0,0,0,0,0,0,0,0,0,0,0,0,0,0,0,0,0,0,0,0,0,0,0,0,0,0,0,0,0,0,0,0,0,0,0,0,0,0,0,0,0,0,0,0,0,0,51,0,0,0,0,0,0,0,0,0,0,0,0,0,
0,0,0,0,0,0,0,0,0,0,0,0,0,0,0,0,0,0,0,0,0,0,0,0,53,0,0,0,41,0,0,0,0,0,0,0,0,0,0,0,0,0,0,0,0,0,0,0,0,0,0,0,0,0,0,0,0,0,0,0,
0,0,0,0,0,0,0,0,0,0,0,0,0,0,0,0,0,0,0,0,0,0,0,0,0,0,0,0,0,0,0,0,0,0,0,0,0,0,0,0,0,0,0,0,0,0,0,0,0,0,0,0,0,0,0,0,0,0,0,0,
0,0,0,0,0,0,0,0,0,0,0,0,0,0,0,0,0,0,0,0,0,0,0,0,0,0,0,0,0,0,0,0,0,0,0,0,0,0,0,0,0,0,0,0,0,0,0,0,0,0,0,0,0,0,0,0,0,0,0,0,
0,0,0,0,0,0,0,0,0,0,0,0,0,0,0,0,0,0,0,0,0,0,0,0,0,0,0,0,0,0,0,0,0,0,0,0,0,0,0,0,0,0,0,0,0,0,0,0,0,0,0,0,0,0,0,0,0,0,0,0,
0,0,0,0,0,0,0,0,0,0,0,0,0,0,0,0,0,0,0,0,0,0,0,0,0,0,0,0,0,0,0,0,0,0,0,0,0,0,0,0,0,0,0,0,0,0,0,0,0,0,0,0,0,0,0,0,0,0,0,0,
0,0,0,0,0,0,0,0,0,0,0,0,0,0,0,0,0,0,0,0,0,0,0,0,0,0,0,0,0,0,0,0,0,0,0,0,0,0,0,0,0,0,0,0,0,0,0,0,0,0,0,0,0,0,0,0,0,0,0,0,
0,0,0,0,0,0,0,0,0,0,0,0,0,0,0,0,0,0,0,0,0,0,0,0,0,0,0,0,0,1547,1546,1545,0,0,0,0,0,0,0,0,0,0,0,0,0,0,0,0,0,0,0,0,0,0,0,0,0,0,0,0,
0,0,0,0,0,0,0,0,0,0,0,0,0,0,0,0,0,0,0,0,0,0,0,0,0,0,0,0,0,1546,1545,1546,0,0,0,0,0,0,0,0,0,0,0,0,0,0,0,0,0,0,0,0,0,0,0,0,0,0,0,0,
0,0,0,0,0,0,0,0,0,0,0,0,0,0,0,0,0,0,0,0,0,0,0,0,0,0,0,0,0,1545,1546,1559,0,0,0,0,0,0,0,0,0,0,0,0,0,0,0,0,0,0,0,0,0,0,0,0,0,0,0,0,
0,0,0,0,0,0,0,0,0,0,0,0,0,0,0,0,0,0,0,0,0,0,0,0,0,0,0,0,0,0,0,0,0,0,0,0,0,0,0,0,0,0,0,0,0,0,0,0,0,0,0,0,0,0,0,0,0,0,0,0
</data>
 </layer>
 <layer id="2" name="walls" width="60" height="40">
  <data encoding="csv">
249,249,249,249,249,249,249,249,249,249,249,249,249,249,249,249,249,249,249,249,249,249,249,249,249,249,249,249,249,0,0,0,249,249,249,249,249,249,249,249,249,249,249,249,249,249,249,249,249,249,249,249,249,249,249,249,249,249,249,249,
249,0,0,0,0,0,0,0,0,0,0,0,0,0,0,0,0,0,0,0,0,0,0,0,0,0,0,0,912,0,0,0,912,0,0,0,0,0,0,0,0,0,0,0,0,0,0,0,0,0,0,0,0,0,0,0,0,0,0,249,
249,0,0,0,0,0,0,0,0,0,0,0,0,0,0,0,0,0,0,0,0,0,0,0,0,0,0,0,920,0,0,0,920,0,0,0,0,0,0,0,0,0,0,0,0,0,0,0,0,0,0,0,0,0,0,0,0,0,0,249,
249,0,572,572,572,572,572,572,0,0,570,570,570,570,570,0,0,0,0,0,0,0,0,569,569,569,569,569,0,0,0,0,0,0,572,572,572,572,572,572,0,0,0,0,0,0,0,0,0,0,571,571,571,571,571,571,0,0,0,249,
249,0,580,580,580,580,580,580,0,0,578,578,578,578,578,0,0,571,571,571,571,571,0,577,577,577,577,577,0,0,0,0,0,0,580,580,580,580,580,580,0,0,0,570,570,570,570,570,0,0,579,579,579,579,579,579,0,0,0,249,
249,0,588,588,588,588,588,588,0,0,369,376,370,370,371,0,0,579,579,579,579,579,0,353,354,360,354,355,0,0,0,0,0,0,588,588,588,588,588,588,0,0,0,578,578,578,578,578,0,0,587,587,587,587,587,587,0,0,0,249,
249,0,385,386,386,386,392,387,0,0,377,384,378,378,379,0,0,417,418,418,424,419,0,361,362,368,362,363,0,0,0,0,0,0,369,370,376,370,370,371,0,0,0,385,392,386,386,387,0,0,417,418,418,418,424,419,0,0,0,249,
249,0,393,394,394,394,400,395,0,0,0,0,0,0,0,0,0,425,426,426,432,427,0,0,0,0,0,0,0,0,0,0,0,0,377,378,384,378,378,379,0,0,0,393,400,394,394,395,0,0,425,426,426,426,432,427,0,0,0,249,
249,0,0,0,0,0,0,0,0,0,0,0,0,0,0,0,887,888,0,0,0,0,0,0,0,0,0,0,0,0,0,0,885,886,0,0,0,0,0,0,0,0,0,0,908,929,930,931,908,0,0,0,0,0,0,0,885,886,0,249,
249,0,0,0,0,0,19,20,0,17,18,0,0,0,0,0,895,896,0,0,0,0,0,0,0,0,0,0,0,0,0,0,893,894,0,0,0,0,0,0,0,0,0,0,916,937,938,939,916,0,0,0,0,0,0,0,893,894,0,249,
249,17,18,0,0,0,0,0,0,0,0,0,0,0,0,0,903,904,0,0,0,0,17,18,0,0,0,908,0,0,0,0,901,902,908,0,0,0,0,0,0,0,0,0,0,945,946,947,0,0,0,0,0,0,0,0,901,902,0,249,
249,0,0,0,0,0,19,20,0,0,0,17,18,0,0,0,0,0,0,0,0,0,0,0,0,1677,1678,916,0,0,0,0,0,0,916,0,0,0,0,0,0,0,0,0,0,0,0,0,0,0,0,0,0,0,0,0,0,920,0,249,
249,0,0,0,0,0,0,0,0,0,0,0,0,0,0,0,0,0,0,0,0,0,0,0,0,1689,1690,0,0,0,0,0,0,0,0,0,0,0,0,0,0,0,0,0,0,0,0,0,0,0,0,0,0,0,0,0,0,0,0,0,
249,0,0,0,0,0,0,0,0,0,0,0,0,0,0,0,0,0,0,0,0,0,0,0,0,0,0,0,0,0,0,0,0,0,0,0,0,0,0,0,0,0,0,0,0,0,0,0,0,0,0,0,0,0,0,0,0,0,0,0,
249,0,0,0,0,0,0,0,0,0,0,0,0,0,0,0,0,0,0,0,0,0,0,0,0,0,0,0,0,0,0,0,0,0,0,0,0,0,0,0,0,0,0,0,0,0,0,0,0,0,0,0,0,0,0,0,0,0,0,0,
249,0,0,230,1617,1618,1619,1620,1621,1617,1618,1619,1620,0,230,0,0,0,0,0,0,0,0,0,0,0,0,0,908,0,0,0,0,908,0,0,0,0,0,0,0,0,0,0,230,1622,1623,1624,1625,1626,1627,1628,1622,1623,1624,230,0,0,0,249,
249,0,0,238,0,0,0,0,0,0,0,0,0,0,238,0,0,0,0,0,0,0,0,0,0,0,0,0,916,0,0,0,0,916,0,0,0,0,0,0,0,0,0,0,238,0,0,0,0,0,0,0,0,0,0,238,0,912,0,249,
249,0,571,571,571,571,571,571,0,0,572,572,572,572,572,0,0,0,0,0,0,0,0,0,0,0,0,0,0,0,0,0,0,0,570,570,570,570,570,570,0,571,571,571,571,571,0,0,0,572,572,572,572,572,572,0,0,920,0,249,
249,0,579,579,579,579,579,579,0,0,580,580,580,580,580,0,0,570,570,570,570,570,0,569,569,569,569,569,0,0,0,0,0,0,578,578,578,578,578,578,0,579,579,579,579,579,0,0,0,580,580,580,580,580,580,0,0,0,0,249,
249,0,587,587,587,587,587,587,0,0,369,376,370,370,371,0,0,578,578,578,578,578,0,577,577,577,577,577,0,0,0,0,0,0,586,586,586,586,586,586,0,417,418,418,424,419,0,0,0,369,376,370,370,370,371,0,0,0,0,249,
249,0,417,418,418,418,424,419,0,0,377,384,378,378,379,0,0,385,386,386,392,387,0,353,360,354,354,355,0,0,0,0,0,0,385,386,392,386,386,387,0,425,426,426,432,427,0,0,0,377,384,378,378,378,379,0,887,888,0,249,
249,0,425,426,426,426,432,427,0,0,0,0,0,0,0,0,0,393,394,394,400,395,0,361,368,362,362,363,0,0,0,0,0,0,393,394,400,394,394,395,0,0,0,0,0,0,0,0,0,0,0,0,0,0,0,0,895,896,0,249,
249,0,0,0,0,0,0,0,0,0,0,0,0,0,0,0,0,0,0,0,0,0,0,0,0,0,0,0,0,0,0,0,0,0,0,0,0,0,0,0,0,0,0,0,0,0,0,0,0,0,0,0,0,0,0,0,903,904,0,249,
249,0,0,0,0,0,0,0,17,18,0,0,0,0,0,0,17,18,0,0,0,0,0,0,0,0,0,0,0,0,0,0,0,19,20,0,0,0,0,0,0,0,0,0,0,19,20,0,0,0,0,0,0,0,0,0,0,0,0,249,
249,0,0,0,0,0,0,0,0,0,0,0,0,0,0,0,0,0,0,0,0,0,0,0,0,0,0,0,0,0,0,0,0,0,0,0,0,0,0,0,0,0,0,0,0,0,0,0,0,0,0,0,0,0,0,0,0,0,0,249,
249,0,0,573,573,573,573,573,573,573,573,573,0,0,0,0,0,0,0,0,0,0,0,0,0,0,0,0,0,0,0,0,0,0,0,0,0,0,0,0,0,0,0,0,0,0,0,574,574,574,574,574,574,574,574,0,0,0,0,249,
249,0,0,581,581,581,581,581,581,581,581,581,0,0,574,574,574,574,574,574,574,0,0,573,573,573,573,573,0,0,0,0,574,574,574,0,0,573,573,573,573,573,573,573,573,0,0,582,582,582,582,582,582,582,582,0,0,0,0,249,
249,0,0,589,589,589,589,589,589,589,589,589,0,0,582,582,582,582,582,582,582,0,0,581,581,581,581,581,0,0,0,0,582,582,582,0,0,581,581,581,581,581,581,581,581,0,0,590,590,590,590,590,590,590,590,0,0,0,0,249,
249,0,0,449,450,450,450,456,450,450,450,451,0,0,465,466,466,472,466,466,467,0,0,449,450,456,450,451,0,0,0,0,465,472,467,0,0,449,450,450,456,450,450,450,451,0,0,465,466,466,472,466,466,466,467,0,0,0,0,249,
249,0,0,457,458,458,458,464,458,458,458,459,0,0,473,474,474,480,474,474,475,0,0,457,458,464,458,459,0,0,0,0,473,480,475,0,0,457,458,458,464,458,458,458,459,0,0,473,474,474,480,474,474,474,475,0,0,0,0,249,
249,0,0,0,0,0,0,0,0,0,0,0,0,0,0,0,0,0,0,0,0,0,0,0,0,0,0,0,0,0,0,0,0,0,0,0,0,0,0,0,0,0,0,0,0,0,0,0,0,0,0,0,0,0,0,0,0,0,0,249,
249,0,0,0,0,0,0,0,0,0,0,0,0,0,0,0,0,0,0,0,0,0,0,0,0,0,0,0,0,0,0,0,0,0,0,0,0,0,0,0,0,0,0,0,0,0,0,0,0,0,0,0,0,0,0,0,0,0,0,249,
249,0,0,0,0,0,1583,1583,0,0,0,0,0,1605,1585,0,0,0,0,0,1586,1586,0,0,0,885,886,0,0,0,0,0,887,888,0,1583,0,0,1584,1586,0,0,0,0,0,1584,0,0,0,0,0,0,1583,0,0,0,1605,0,0,249,
249,0,0,0,0,0,0,860,0,0,0,0,0,857,0,0,0,0,0,0,0,858,0,0,0,893,894,0,0,0,0,0,895,896,0,877,0,0,0,860,0,0,0,0,0,0,0,0,0,0,0,0,860,0,0,0,0,0,0,249,
249,0,0,0,0,0,0,0,0,0,0,942,0,0,0,0,0,0,0,0,0,0,0,0,0,901,902,0,0,0,0,0,903,904,0,0,0,0,0,0,0,0,0,0,0,0,942,0,0,0,0,0,0,0,0,0,0,0,0,249,
249,0,0,0,942,0,0,0,0,0,0,950,0,0,0,0,0,0,942,0,0,0,0,0,0,0,0,0,0,0,0,0,0,1886,1887,1887,1887,1887,1887,1887,1887,1887,1887,1888,0,0,950,0,0,0,0,0,0,942,0,0,0,0,0,249,
0,0,0,0,950,0,1886,1887,1887,1887,1887,1887,1887,1887,1887,1888,0,0,950,0,0,0,0,0,1886,1887,1887,1887,1888,1605,0,0,1886,1918,1847,1847,1847,1847,1847,1847,1847,1847,1847,1917,1887,1887,1887,1887,1888,0,0,0,0,950,0,0,0,1886,1887,1887,
1887,1887,1887,1887,1887,1887,1918,1847,1847,1847,1847,1847,1847,1847,1847,1917,1887,1887,1887,1887,1887,1887,1887,1887,1918,1847,1847,1847,1896,0,0,0,1894,1847,1847,1847,1847,1847,1847,1847,1847,1847,1847,1847,1847,1847,1847,1847,1917,1887,1887,1887,1887,1887,1887,1887,1887,1918,1847,1847,
1847,1847,1847,1847,1847,1847,1847,1847,1847,1847,1847,1847,1847,1847,1847,1847,1847,1847,1847,1847,1847,1847,1847,1847,1847,1847,1847,1847,1896,1522,0,1522,1894,1847,1847,1847,1847,1847,1847,1847,1847,1847,1847,1847,1847,1847,1847,1847,1847,1847,1847,1847,1847,1847,1847,1847,1847,1847,1847,1847,
1847,1847,1847,1847,1847,1847,1847,1847,1847,1847,1847,1847,1847,1847,1847,1847,1847,1847,1847,1847,1847,1847,1847,1847,1847,1847,1847,1847,1917,1887,1887,1887,1918,1847,1847,1847,1847,1847,1847,1847,1847,1847,1847,1847,1847,1847,1847,1847,1847,1847,1847,1847,1847,1847,1847,1847,1847,1847,1847,1847
</data>
 </layer>
 <layer id="5" name="overhead" width="60" height="40">
  <data encoding="csv">
0,0,0,0,0,0,0,0,0,0,0,0,0,0,0,0,0,0,0,0,0,0,0,0,0,0,0,0,0,0,0,0,0,0,0,0,0,0,0,0,0,0,0,0,0,0,0,0,0,0,0,0,0,0,0,0,0,0,0,0,
0,0,0,0,0,0,0,0,0,0,0,0,0,0,0,0,0,0,0,0,0,0,0,0,0,0,0,0,0,0,0,0,0,0,0,0,0,0,0,0,0,0,0,0,0,0,0,0,0,0,0,0,0,0,0,0,0,0,0,0,
0,0,564,564,564,564,564,564,0,0,562,562,562,562,562,0,0,0,0,0,0,0,0,561,561,561,561,561,0,0,0,0,0,0,564,564,564,564,564,564,0,0,0,0,0,0,0,0,0,0,563,563,563,563,563,563,0,0,0,0,
0,0,0,568,0,0,0,0,0,0,0,0,0,0,0,0,0,563,563,563,563,563,0,0,0,0,0,0,0,0,0,0,0,0,0,0,0,0,568,0,0,0,0,562,562,562,562,562,0,0,0,568,0,0,0,0,0,0,0,0,
0,0,0,576,0,0,0,0,0,0,0,0,0,0,0,0,0,0,0,0,0,0,0,0,0,0,0,0,0,0,0,0,0,0,0,0,0,0,576,0,0,0,0,0,0,0,0,0,0,0,0,576,0,0,0,0,0,0,0,0,
0,0,0,584,0,0,0,0,0,0,0,375,0,594,0,0,0,0,0,0,0,0,0,0,0,359,0,594,0,0,0,0,0,0,0,0,0,0,584,0,0,0,0,0,0,0,0,0,0,0,0,584,0,0,0,0,0,0,0,0,
0,0,0,594,594,0,391,0,0,0,0,0,0,602,0,0,0,0,594,0,423,0,0,0,0,0,0,602,0,0,0,0,0,0,0,665,375,0,598,598,0,0,0,0,391,0,594,0,0,0,0,594,594,0,423,0,0,0,0,0,
0,0,0,602,602,0,0,0,0,0,0,0,0,0,0,0,0,0,602,0,0,0,0,0,0,0,0,0,0,0,0,0,0,0,0,0,0,0,606,606,0,0,0,0,0,0,602,0,0,0,0,602,602,0,0,0,0,0,0,0,
0,0,0,0,0,0,11,12,0,9,10,0,0,0,0,0,0,0,0,0,0,0,0,0,0,0,0,0,0,0,0,0,0,0,0,0,0,0,0,0,0,0,0,0,0,0,0,0,0,0,0,0,0,0,0,0,0,0,0,0,
0,9,10,0,0,0,0,0,0,0,0,0,0,0,0,0,0,0,0,0,0,0,9,10,0,0,0,0,0,0,0,0,0,0,0,0,0,0,0,0,0,0,0,0,0,0,0,0,0,0,0,0,0,0,0,0,0,0,0,0,
0,0,0,0,0,0,11,12,0,0,0,9,10,0,0,0,0,0,0,0,0,0,0,0,0,0,0,0,0,0,0,0,0,0,0,0,0,0,0,0,0,0,0,0,0,0,0,0,0,0,0,0,0,0,0,0,0,0,0,0,
0,0,0,0,0,0,0,0,0,0,0,0,0,0,0,0,0,0,0,0,0,0,0,0,0,0,0,0,0,0,0,0,0,0,0,0,0,0,0,0,0,0,0,0,0,0,0,0,0,0,0,0,0,0,0,0,0,0,0,0,
0,0,0,0,0,0,0,0,0,0,0,0,0,0,0,0,0,0,0,0,0,0,0,0,0,0,0,0,0,0,0,0,0,0,0,0,0,0,0,0,0,0,0,0,0,0,0,0,0,0,0,0,0,0,0,0,0,0,0,0,
0,0,0,0,0,0,0,0,0,0,0,0,0,0,0,0,0,0,0,0,0,0,0,0,0,0,0,0,0,0,0,0,0,0,0,0,0,0,0,0,0,0,0,0,0,0,0,0,0,0,0,0,0,0,0,0,0,0,0,0,
0,0,0,0,0,0,0,0,0,0,0,0,0,0,0,0,0,0,0,0,0,0,0,0,0,0,0,0,0,0,0,0,0,0,0,0,0,0,0,0,0,0,0,0,0,0,0,0,0,0,0,0,0,0,0,0,0,0,0,0,
0,0,0,0,0,0,0,0,0,0,0,0,0,0,0,0,0,0,0,0,0,0,0,0,0,0,0,0,0,0,0,0,0,0,0,0,0,0,0,0,0,0,0,0,0,0,0,0,0,0,0,0,0,0,0,0,0,0,0,0,
0,0,563,563,563,563,563,563,0,0,564,564,564,564,564,0,0,0,0,0,0,0,0,0,0,0,0,0,0,0,0,0,0,0,562,562,562,562,562,562,0,563,563,563,563,563,0,0,0,564,564,564,564,564,564,0,0,0,0,0,
0,0,0,568,0,0,0,0,0,0,0,0,0,0,0,0,0,562,562,562,562,562,0,561,561,561,561,561,0,0,0,0,0,0,0,0,0,0,568,0,0,0,0,0,0,0,0,0,0,0,0,0,0,0,0,0,0,0,0,0,
0,0,0,576,0,0,0,0,0,0,0,0,0,0,0,0,0,0,0,0,0,0,0,0,0,0,0,0,0,0,0,0,0,0,0,0,0,0,576,0,0,0,0,0,0,0,0,0,0,0,0,0,0,0,0,0,0,0,0,0,
0,0,0,584,0,0,0,0,0,0,660,375,0,594,0,0,0,0,0,0,0,0,0,0,0,0,0,0,0,0,0,0,0,0,0,0,0,0,584,0,0,0,594,0,423,0,0,0,0,661,375,0,598,598,0,0,0,0,0,0,
0,0,0,594,594,0,423,0,0,0,0,0,0,602,0,0,0,0,594,0,391,0,0,0,359,0,594,0,0,0,0,0,0,0,0,664,391,0,594,594,0,0,602,0,0,0,0,0,0,0,0,0,606,606,0,0,0,0,0,0,
0,0,0,602,602,0,0,0,0,0,0,0,0,0,0,0,0,0,602,0,0,0,0,0,0,0,602,0,0,0,0,0,0,0,0,0,0,0,602,602,0,0,0,0,0,0,0,0,0,0,0,0,0,0,0,0,0,0,0,0,
0,0,0,0,0,0,0,0,9,10,0,0,0,0,0,0,9,10,0,0,0,0,0,0,0,0,0,0,0,0,0,0,0,11,12,0,0,0,0,0,0,0,0,0,0,11,12,0,0,0,0,0,0,0,0,0,0,0,0,0,
0,0,0,0,0,0,0,0,0,0,0,0,0,0,0,0,0,0,0,0,0,0,0,0,0,0,0,0,0,0,0,0,0,0,0,0,0,0,0,0,0,0,0,0,0,0,0,0,0,0,0,0,0,0,0,0,0,0,0,0,
0,0,0,565,565,565,565,565,565,565,565,565,0,0,0,0,0,0,0,0,0,0,0,0,0,0,0,0,0,0,0,0,0,0,0,0,0,0,0,0,0,0,0,0,0,0,0,566,566,566,566,566,566,566,566,0,0,0,0,0,
0,0,0,0,0,0,0,0,0,0,0,0,0,0,566,566,566,566,566,566,566,0,0,565,565,565,565,565,0,0,0,0,566,566,566,0,0,565,565,565,565,565,565,565,565,0,0,0,0,0,0,0,0,0,0,0,0,0,0,0,
0,0,0,0,0,0,0,0,0,0,0,0,0,0,0,0,0,0,0,0,0,0,0,0,0,0,0,0,0,0,0,0,0,0,0,0,0,0,0,0,0,0,0,0,0,0,0,0,0,0,0,0,0,0,0,0,0,0,0,0,
0,0,0,0,0,0,0,0,0,0,0,0,0,0,0,0,0,0,0,0,0,0,0,0,0,0,0,0,0,0,0,0,0,0,0,0,0,0,0,0,0,0,0,0,0,0,0,0,0,0,0,0,0,0,0,0,0,0,0,0,
0,0,0,0,594,0,0,455,0,0,594,0,0,0,0,594,0,471,0,594,0,0,0,0,0,455,0,594,0,0,0,0,0,471,0,0,0,0,594,0,455,0,0,594,0,0,0,0,594,0,471,0,0,594,0,0,0,0,0,0,
0,0,0,0,602,0,0,0,0,0,602,0,0,0,0,602,0,0,0,602,0,0,0,0,0,0,0,602,0,0,0,0,0,0,0,0,0,0,602,0,0,0,0,602,0,0,0,0,602,0,0,0,0,602,0,0,0,0,0,0,
0,0,0,0,0,0,0,0,0,0,0,0,0,0,0,0,0,0,0,0,0,0,0,0,0,0,0,0,0,0,0,0,0,0,0,0,0,0,0,0,0,0,0,0,0,0,0,0,0,0,0,0,0,0,0,0,0,0,0,0,
0,0,0,0,0,0,0,0,0,0,0,0,0,0,0,0,0,0,0,0,0,0,0,0,0,0,0,0,0,0,0,0,0,0,0,0,0,0,0,0,0,0,0,0,0,0,0,0,0,0,0,0,0,0,0,0,0,0,0,0,
0,0,0,0,0,0,0,0,0,0,0,0,0,0,0,0,0,0,0,0,0,0,0,0,0,0,0,0,0,0,0,0,0,0,0,0,0,0,0,0,0,0,0,0,0,0,0,0,0,0,0,0,0,0,0,0,0,0,0,0,
0,0,0,0,0,0,0,0,0,0,0,0,0,0,0,0,0,0,0,0,0,0,0,0,0,0,0,0,0,0,0,0,0,0,0,0,0,0,0,0,0,0,0,0,0,0,0,0,0,0,0,0,0,0,0,0,0,0,0,0,
0,0,0,0,0,0,0,0,0,0,0,0,0,0,0,0,0,0,0,0,0,0,0,0,0,0,0,0,0,0,0,0,0,0,0,0,0,0,0,0,0,0,0,0,0,0,0,0,0,0,0,0,0,0,0,0,0,0,0,0,
0,0,0,0,0,0,0,0,0,0,0,0,0,0,0,0,0,0,0,0,0,0,0,0,0,0,0,0,0,0,0,0,0,0,0,0,0,0,0,0,0,0,0,0,0,0,0,0,0,0,0,0,0,0,0,0,0,0,0,0,
0,0,0,0,0,0,0,0,0,0,0,0,0,0,0,0,0,0,0,0,0,0,0,0,0,0,0,0,0,0,0,0,0,0,0,0,0,0,0,0,0,0,0,0,0,0,0,0,0,0,0,0,0,0,0,0,0,0,0,0,
0,0,0,0,0,0,0,0,0,0,0,0,0,0,0,0,0,0,0,0,0,0,0,0,0,0,0,0,0,0,0,0,0,0,0,0,0,0,0,0,0,0,0,0,0,0,0,0,0,0,0,0,0,0,0,0,0,0,0,0,
0,0,0,0,0,0,0,0,0,0,0,0,0,0,0,0,0,0,0,0,0,0,0,0,0,0,0,0,0,0,0,0,0,0,0,0,0,0,0,0,0,0,0,0,0,0,0,0,0,0,0,0,0,0,0,0,0,0,0,0,
0,0,0,0,0,0,0,0,0,0,0,0,0,0,0,0,0,0,0,0,0,0,0,0,0,0,0,0,0,0,0,0,0,0,0,0,0,0,0,0,0,0,0,0,0,0,0,0,0,0,0,0,0,0,0,0,0,0,0,0
</data>
 </layer>
 <objectgroup id="3" name="spawn">
  <object id="1" name="player" x="976" y="656">
   <point/>
  </object>
 </objectgroup>
</map>
