<?xml version="1.0" encoding="UTF-8"?>
<map version="1.10" tiledversion="1.12.2" orientation="orthogonal" renderorder="right-down" width="34" height="22" tilewidth="32" tileheight="32" infinite="0" nextlayerid="7" nextobjectid="14">
 <tileset firstgid="1" name="pipoya-basechip" tilewidth="32" tileheight="32" tilecount="512" columns="8">
  <image source="../../../apps/client/public/tilesets/pipoya-basechip.png" width="256" height="2048"/>
 </tileset>
 <tileset firstgid="513" name="pipoya-basechip-2" tilewidth="32" tileheight="32" tilecount="512" columns="8">
  <image source="../../../apps/client/public/tilesets/pipoya-basechip-2.png" width="256" height="2048"/>
 </tileset>
 <tileset firstgid="1025" name="pipoya-basechip-3" tilewidth="32" tileheight="32" tilecount="40" columns="8">
  <image source="../../../apps/client/public/tilesets/pipoya-basechip-3.png" width="256" height="160"/>
 </tileset>
 <tileset firstgid="1065" name="pipoya-addwork" tilewidth="32" tileheight="32" tilecount="768" columns="12">
  <image source="../../../apps/client/public/tilesets/pipoya-addwork.png" width="384" height="2048"/>
 </tileset>
 <tileset firstgid="1833" name="pipoya-water" tilewidth="32" tileheight="32" tilecount="96" columns="8">
  <image source="../../../apps/client/public/tilesets/pipoya-water.png" width="256" height="384"/>
 </tileset>
 <tileset firstgid="1929" name="pipoya-ground" tilewidth="32" tileheight="32" tilecount="48" columns="8">
  <image source="../../../apps/client/public/tilesets/pipoya-ground.png" width="256" height="192"/>
 </tileset>
 <layer id="1" name="ground" width="34" height="22">
  <data encoding="csv">
2,2,2,2,2,2,2,2,2,2,2,2,2,2,2,2,2,2,2,2,2,2,2,2,2,2,2,2,2,2,2,2,2,2,
2,2,2,2,2,2,2,2,2,2,2,2,2,2,2,2,2,2,2,2,2,2,2,2,2,2,2,2,2,2,2,2,2,2,
2,2,2,2,2,2,2,2,2,2,2,2,2,2,2,2,2,2,2,2,2,2,2,2,2,2,2,2,2,2,2,2,2,2,
2,2,2,2,2,2,2,2,2,2,2,2,2,2,2,2,2,2,2,2,2,2,2,2,2,2,2,2,2,2,2,2,2,2,
2,2,2,2,2,2,2,2,2,2,2,2,2,2,2,2,2,2,2,2,2,2,2,2,2,2,2,2,2,2,2,2,2,2,
2,2,2,2,2,2,2,2,2,2,2,2,2,2,2,2,2,2,2,2,2,2,2,2,2,2,2,2,2,2,2,2,2,2,
2,2,2,2,2,2,2,2,2,2,2,2,2,2,2,2,2,2,2,2,2,2,2,2,2,2,2,2,2,2,2,2,2,2,
2,2,2,2,2,2,2,2,2,2,2,2,2,2,2,2,2,2,2,2,2,2,2,2,2,2,2,2,2,2,2,2,2,2,
2,2,2,2,2,2,2,2,2,2,2,2,2,2,2,2,2,2,2,2,2,2,2,2,2,2,2,2,2,2,2,2,2,2,
2,2,2,2,2,2,2,2,2,2,2,2,2,2,2,2,2,2,2,2,2,2,2,2,2,2,2,2,2,2,2,2,2,2,
2,2,2,2,2,2,2,2,2,2,2,2,2,2,2,2,2,2,2,2,2,2,2,2,2,2,2,2,2,2,2,2,2,2,
2,2,2,2,2,2,2,2,2,2,2,2,2,2,2,2,2,2,2,2,2,2,2,2,2,2,2,2,2,2,2,2,2,2,
2,2,2,2,2,2,2,2,2,2,2,2,2,2,2,2,2,2,2,2,2,2,2,2,2,2,2,2,2,2,2,2,2,2,
2,2,2,2,2,2,2,2,2,2,2,2,2,2,2,2,2,2,2,2,2,2,2,2,2,2,2,2,2,2,2,2,2,2,
2,2,2,2,2,2,2,2,2,2,2,2,2,2,2,2,2,2,2,2,2,2,2,2,2,2,2,2,2,2,2,2,2,2,
2,2,2,2,2,2,2,2,2,2,2,2,2,2,2,2,2,2,2,2,2,2,2,2,2,2,2,2,2,2,2,2,2,2,
2,2,2,2,2,2,2,2,2,2,2,2,2,2,2,2,2,2,2,2,2,2,2,2,2,2,2,2,2,2,2,2,2,2,
2,2,2,2,2,2,2,2,2,2,2,2,2,2,2,2,2,2,2,2,2,2,2,2,2,2,2,2,2,2,2,2,2,2,
2,2,2,2,2,2,2,2,2,2,2,2,2,2,2,2,2,2,2,2,2,2,2,2,2,2,2,2,2,2,2,2,2,2,
2,2,2,2,2,2,2,2,2,2,2,2,2,2,2,2,2,2,2,2,2,2,2,2,2,2,2,2,2,2,2,2,2,2,
2,2,2,2,2,2,2,2,2,2,2,2,2,2,2,2,2,2,2,2,2,2,2,2,2,2,2,2,2,2,2,2,2,2,
2,2,2,2,2,2,2,2,2,2,2,2,2,2,2,2,2,2,2,2,2,2,2,2,2,2,2,2,2,2,2,2,2,2
</data>
 </layer>
 <layer id="2" name="decor" width="34" height="22">
  <data encoding="csv">
50,0,0,0,56,0,0,0,55,42,0,0,0,56,53,0,0,0,50,0,0,0,0,55,50,58,51,50,52,50,0,0,50,56,
0,0,0,0,0,0,0,0,0,56,41,55,0,66,0,0,51,50,0,66,41,41,56,50,0,42,0,56,65,51,0,0,41,55,
52,0,53,0,0,41,0,0,0,66,41,0,55,65,50,51,57,0,0,66,50,0,50,58,0,50,0,0,0,0,55,50,0,0,
52,42,52,50,0,0,50,0,52,53,57,0,50,50,50,65,50,65,41,52,65,0,55,0,0,50,0,0,0,0,0,56,0,0,
0,55,53,58,50,52,50,0,53,0,0,0,0,1934,1936,50,50,55,0,1937,1931,1931,1931,1938,0,55,50,0,0,0,0,0,0,0,
0,57,50,0,0,0,65,55,57,55,0,1934,1955,1964,1963,1931,1938,55,1937,1946,0,50,55,1945,1931,1938,0,0,0,0,0,0,0,55,
0,55,0,52,0,50,0,0,52,55,1934,1974,1952,50,0,0,1945,1931,1946,0,0,56,0,58,51,1945,1931,1931,1938,53,0,0,0,53,
0,57,50,57,50,55,41,0,0,1934,1974,1952,0,0,0,0,0,0,0,0,0,0,55,42,55,53,52,0,1961,1936,50,53,55,50,
0,0,56,57,55,42,42,0,51,1953,1952,0,0,0,0,0,0,0,0,0,0,50,0,55,65,58,0,58,1950,1959,1931,1938,0,56,
0,55,0,65,57,57,50,53,1934,1962,0,0,0,0,50,53,0,0,0,50,41,55,52,0,41,0,50,55,56,1949,0,1945,1938,66,
0,0,0,50,1934,1935,1935,1935,1966,1944,0,0,0,0,0,0,66,66,0,50,50,0,42,66,55,56,0,41,56,0,42,58,1939,1932,
1934,1936,0,1937,1964,1951,1958,1943,1943,1944,0,0,0,58,0,0,57,41,53,50,0,0,0,0,0,58,55,50,55,0,0,1934,1962,0,
1950,1963,1931,1946,66,65,1950,1951,1958,1944,58,50,56,42,56,0,65,57,0,51,52,0,50,0,0,0,0,0,0,56,41,1953,1952,0,
52,0,0,0,0,51,0,0,1950,1954,0,50,55,41,57,55,50,0,42,42,0,42,0,0,0,0,0,0,0,56,1934,1962,50,51,
58,42,0,55,55,0,50,50,53,1945,1938,0,0,0,0,55,0,0,55,57,0,0,0,0,0,0,0,0,0,1934,1974,1952,58,50,
50,50,66,56,42,52,58,41,0,0,1941,0,0,0,0,0,0,51,50,56,55,50,0,0,0,0,0,0,1934,1974,1952,41,55,0,
0,41,0,0,42,53,0,50,42,65,1945,1938,0,0,0,0,0,0,0,65,55,57,65,53,0,1934,1935,1955,1964,1952,55,66,41,55,
0,41,51,0,0,50,0,50,50,51,65,1961,1935,1936,0,0,1934,1935,1936,50,0,66,0,0,0,1953,1951,1952,0,0,53,65,41,66,
50,0,41,0,55,41,50,0,66,42,50,1950,1951,1963,1931,1931,1964,1951,1959,1931,1938,42,1937,1931,1931,1946,50,50,41,56,51,42,52,53,
50,0,0,0,0,50,0,0,50,0,0,51,57,50,52,55,51,0,1949,0,1945,1931,1946,58,50,50,0,50,50,55,0,50,50,0,
0,58,0,0,0,0,0,0,52,0,52,0,50,56,55,50,0,50,66,55,0,0,53,42,66,53,52,41,53,50,0,0,55,41,
0,0,55,0,0,0,0,0,0,57,0,56,65,0,50,55,58,0,51,0,0,57,51,56,55,65,53,0,57,51,42,65,50,53
</data>
 </layer>
 <layer id="3" name="walls" width="34" height="22">
  <data encoding="csv">
0,0,0,0,0,0,0,41,42,0,0,0,0,66,65,0,0,0,0,65,65,44,0,0,42,42,0,0,0,0,0,0,0,0,
0,17,18,0,0,17,18,0,0,0,0,0,0,0,0,0,0,0,0,0,0,42,0,0,0,0,0,0,0,0,21,22,0,65,
0,0,0,19,20,0,0,17,18,0,0,0,0,0,0,0,0,0,0,0,0,0,0,0,0,0,0,179,185,180,0,0,179,180,
42,0,0,0,0,0,0,0,0,0,0,0,0,0,0,0,0,0,0,0,0,0,0,0,0,0,0,177,0,0,0,0,0,0,
42,41,0,0,0,0,0,0,0,0,0,0,0,0,0,0,0,0,0,0,0,0,0,0,0,0,0,192,0,0,0,0,21,22,
0,0,0,0,0,0,0,0,0,0,0,0,0,0,0,0,0,0,0,0,0,0,0,0,0,0,0,0,0,0,0,0,0,0,
0,0,0,0,0,0,0,0,0,0,0,0,0,0,0,0,0,0,0,0,0,0,0,0,0,0,0,192,0,0,0,0,0,0,
42,0,0,0,0,0,0,230,0,0,0,0,0,0,0,0,0,0,0,0,0,0,0,0,0,0,0,0,0,0,0,0,0,41,
42,0,0,0,0,0,0,238,0,0,0,0,0,0,0,0,0,0,0,0,0,0,0,0,0,0,0,0,0,0,0,0,0,0,
66,65,874,0,0,0,0,0,0,0,0,0,0,0,0,0,0,0,0,0,0,0,0,0,0,0,0,0,0,0,0,0,0,0,
0,0,0,0,0,0,0,0,0,0,0,0,0,0,0,0,0,0,0,0,0,0,0,0,0,0,0,0,0,0,0,0,0,0,
0,0,0,0,0,0,0,0,0,0,0,0,0,0,0,0,0,0,0,0,0,0,0,0,0,0,0,0,0,0,0,0,0,0,
0,0,0,0,0,0,0,0,0,0,0,0,0,0,0,0,0,0,0,0,0,0,0,1886,1888,0,0,179,180,179,180,177,0,41,
0,0,878,0,0,0,0,0,0,0,0,0,0,0,0,0,0,0,0,0,0,0,1886,1918,1917,1887,1888,0,0,0,0,0,66,42,
42,0,0,0,0,0,0,0,0,0,0,0,0,0,0,0,0,0,0,0,0,0,1894,1895,1895,1909,1904,0,0,0,0,0,192,0,
42,42,0,0,0,0,0,0,0,0,0,0,0,0,0,0,0,0,0,0,0,0,1902,1903,1903,1904,0,185,179,180,179,180,0,0,
0,0,0,0,0,0,0,0,0,0,0,0,0,0,0,0,0,0,0,0,0,0,0,0,0,0,0,0,0,0,0,0,0,0,
0,0,0,0,0,0,0,0,0,0,0,0,0,0,0,0,0,0,0,0,0,0,0,0,0,0,0,0,0,0,0,0,0,0,
41,0,0,0,0,0,0,0,0,0,0,0,0,0,0,0,0,0,0,0,0,0,0,0,0,0,0,0,0,0,0,0,0,41,
66,0,0,0,0,0,0,0,0,0,0,0,0,0,0,0,0,0,0,0,0,0,0,0,0,0,0,0,0,0,0,0,42,41,
41,0,19,20,0,0,17,18,0,0,0,0,0,0,0,0,0,0,42,0,0,0,0,0,0,0,42,0,0,66,0,0,41,66,
41,0,0,0,17,18,42,0,0,0,0,44,65,66,0,0,0,0,41,0,44,65,0,0,0,0,66,42,44,42,0,0,0,0
</data>
 </layer>
 <layer id="6" name="overhead" width="34" height="22">
  <data encoding="csv">
0,9,10,0,0,9,10,0,0,0,0,0,0,0,0,0,0,0,0,0,0,0,0,0,0,0,0,0,0,0,13,14,0,0,
0,0,0,11,12,0,0,9,10,0,0,0,0,0,0,0,0,0,0,0,0,0,0,0,0,0,0,0,0,0,0,0,0,0,
0,0,0,0,0,0,0,0,0,0,0,0,0,0,0,0,0,0,0,0,0,0,0,0,0,0,0,0,0,0,0,0,0,0,
0,0,0,0,0,0,0,0,0,0,0,0,0,0,0,0,0,0,0,0,0,0,0,0,0,0,0,0,0,0,0,0,13,14,
0,0,0,0,0,0,0,0,0,0,0,0,0,0,0,0,0,0,0,0,0,0,0,0,0,0,0,0,0,0,0,0,0,0,
0,0,0,0,0,0,0,0,0,0,0,0,0,0,0,0,0,0,0,0,0,0,0,0,0,0,0,0,0,0,0,0,0,0,
0,0,0,0,0,0,0,0,0,0,0,0,0,0,0,0,0,0,0,0,0,0,0,0,0,0,0,0,0,0,0,0,0,0,
0,0,0,0,0,0,0,0,0,0,0,0,0,0,0,0,0,0,0,0,0,0,0,0,0,0,0,0,0,0,0,0,0,0,
0,0,0,0,0,0,0,0,0,0,0,0,0,0,0,0,0,0,0,0,0,0,0,0,0,0,0,0,0,0,0,0,0,0,
0,0,0,0,0,0,0,0,0,0,0,0,0,0,0,0,0,0,0,0,0,0,0,0,0,0,0,0,0,0,0,0,0,0,
0,0,0,0,0,0,0,0,0,0,0,0,0,0,0,0,0,0,0,0,0,0,0,0,0,0,0,0,0,0,0,0,0,0,
0,0,0,0,0,0,0,0,0,0,0,0,0,0,0,0,0,0,0,0,0,0,0,0,0,0,0,0,0,0,0,0,0,0,
0,0,0,0,0,0,0,0,0,0,0,0,0,0,0,0,0,0,0,0,0,0,0,0,0,0,0,0,0,0,0,0,0,0,
0,0,0,0,0,0,0,0,0,0,0,0,0,0,0,0,0,0,0,0,0,0,0,0,0,0,0,0,0,0,0,0,0,0,
0,0,0,0,0,0,0,0,0,0,0,0,0,0,0,0,0,0,0,0,0,0,0,0,0,0,0,0,0,0,0,0,0,0,
0,0,0,0,0,0,0,0,0,0,0,0,0,0,0,0,0,0,0,0,0,0,0,0,0,0,0,0,0,0,0,0,0,0,
0,0,0,0,0,0,0,0,0,0,0,0,0,0,0,0,0,0,0,0,0,0,0,0,0,0,0,0,0,0,0,0,0,0,
0,0,0,0,0,0,0,0,0,0,0,0,0,0,0,0,0,0,0,0,0,0,0,0,0,0,0,0,0,0,0,0,0,0,
0,0,0,0,0,0,0,0,0,0,0,0,0,0,0,0,0,0,0,0,0,0,0,0,0,0,0,0,0,0,0,0,0,0,
0,0,11,12,0,0,9,10,0,0,0,0,0,0,0,0,0,0,0,0,0,0,0,0,0,0,0,0,0,0,0,0,0,0,
0,0,0,0,9,10,0,0,0,0,0,0,0,0,0,0,0,0,0,0,0,0,0,0,0,0,0,0,0,0,0,0,0,0,
0,0,0,0,0,0,0,0,0,0,0,0,0,0,0,0,0,0,0,0,0,0,0,0,0,0,0,0,0,0,0,0,0,0
</data>
 </layer>
 <objectgroup id="4" name="spawn">
  <object id="1" name="player" x="48" y="368">
   <point/>
  </object>
 </objectgroup>
 <objectgroup id="5" name="nodes">
  <object id="14" x="704" y="352">
   <properties>
    <property name="nodeId" value="frostbloom_patch"/>
    <property name="instanceId" value="frostbloom_patch-1"/>
   </properties>
   <point/>
  </object>
  <object id="2" x="880" y="432">
   <properties>
    <property name="nodeId" value="rare_herb_patch"/>
    <property name="instanceId" value="rare_herb_patch-2"/>
   </properties>
   <point/>
  </object>
  <object id="3" x="880" y="464">
   <properties>
    <property name="nodeId" value="rare_herb_patch"/>
    <property name="instanceId" value="rare_herb_patch-3"/>
   </properties>
   <point/>
  </object>
  <object id="4" x="1008" y="432">
   <properties>
    <property name="nodeId" value="rare_herb_patch"/>
    <property name="instanceId" value="rare_herb_patch-4"/>
   </properties>
   <point/>
  </object>
  <object id="5" x="1008" y="464">
   <properties>
    <property name="nodeId" value="rare_herb_patch"/>
    <property name="instanceId" value="rare_herb_patch-5"/>
   </properties>
   <point/>
  </object>
  <object id="6" x="400" y="272">
   <properties>
    <property name="nodeId" value="herb_patch"/>
    <property name="instanceId" value="herb_patch-3"/>
   </properties>
   <point/>
  </object>
  <object id="7" x="368" y="304">
   <properties>
    <property name="nodeId" value="herb_patch"/>
    <property name="instanceId" value="herb_patch-4"/>
   </properties>
   <point/>
  </object>
  <object id="8" x="368" y="336">
   <properties>
    <property name="nodeId" value="herb_patch"/>
    <property name="instanceId" value="herb_patch-5"/>
   </properties>
   <point/>
  </object>
  <object id="9" x="496" y="240">
   <properties>
    <property name="nodeId" value="herb_patch"/>
    <property name="instanceId" value="herb_patch-6"/>
   </properties>
   <point/>
  </object>
  <object id="10" x="560" y="272">
   <properties>
    <property name="nodeId" value="herb_patch"/>
    <property name="instanceId" value="herb_patch-7"/>
   </properties>
   <point/>
  </object>
  <object id="11" x="624" y="240">
   <properties>
    <property name="nodeId" value="herb_patch"/>
    <property name="instanceId" value="herb_patch-8"/>
   </properties>
   <point/>
  </object>
  <object id="12" x="432" y="496">
   <properties>
    <property name="nodeId" value="herb_patch"/>
    <property name="instanceId" value="herb_patch-9"/>
   </properties>
   <point/>
  </object>
  <object id="13" x="496" y="528">
   <properties>
    <property name="nodeId" value="herb_patch"/>
    <property name="instanceId" value="herb_patch-10"/>
   </properties>
   <point/>
  </object>
 </objectgroup>
</map>
